; generated by Slic3r 1.2.9 on 2018-10-31 at 02:06:54

; external perimeters extrusion width = 0.25mm
; perimeters extrusion width = 0.25mm
; infill extrusion width = 0.20mm
; solid infill extrusion width = 0.20mm
; top infill extrusion width = 0.22mm
; support material extrusion width = 0.19mm

M107
M190 S110
M104 S239
M109 S239
G28 ; home all axes
G21 ; set units to millimeters
G90 ; use absolute coordinates
M82 ; use absolute distances for extrusion
G92 E0
G1 E-1.00000 F1200.00000
G92 E0
G1 Z0.250 F1800.000
G1 X61.127 Y34.173 F1800.000
G1 E1.00000 F1200.00000
G1 X62.537 Y31.635 E1.05926 F1500.000
G1 X64.584 Y29.576 E1.11852
G1 X67.114 Y28.150 E1.17778
G1 X71.000 Y27.411 E1.25851
G1 X99.000 Y27.411 E1.82994
G1 X101.876 Y27.809 E1.88920
G1 X104.536 Y28.973 E1.94846
G1 X106.780 Y30.817 E2.00772
G1 X108.439 Y33.200 E2.06697
G1 X109.542 Y37.003 E2.14779
G1 X110.860 Y50.936 E2.43340
G1 X111.010 Y53.219 E2.48010
G1 X111.046 Y54.663 E2.50958
G1 X111.080 Y75.949 E2.94399
G1 X111.040 Y76.879 E2.96298
G1 X110.862 Y78.942 E3.00525
G1 X109.543 Y92.990 E3.29319
G1 X108.877 Y95.816 E3.35245
G1 X107.469 Y98.356 E3.41171
G1 X105.425 Y100.417 E3.47097
G1 X102.897 Y101.846 E3.53023
G1 X99.000 Y102.589 E3.61119
G1 X71.000 Y102.589 E4.18262
G1 X68.124 Y102.191 E4.24187
G1 X65.464 Y101.027 E4.30113
G1 X63.220 Y99.183 E4.36039
G1 X61.561 Y96.800 E4.41965
G1 X60.458 Y92.997 E4.50047
G1 X59.163 Y79.300 E4.78124
G1 X59.005 Y76.493 E4.83862
G1 X58.988 Y75.645 E4.85592
G1 X58.958 Y54.677 E5.28384
G1 X58.986 Y53.192 E5.31415
G1 X59.139 Y50.890 E5.36124
G1 X60.458 Y36.999 E5.64601
G1 X61.113 Y34.232 E5.70404
G1 X61.319 Y34.219 F1800.000
G1 X62.727 Y31.710 E5.76274 F1500.000
G1 X64.768 Y29.683 E5.82145
G1 X67.286 Y28.294 E5.88015
G1 X71.000 Y27.607 E5.95723
G1 X99.000 Y27.607 E6.52866
G1 X101.849 Y28.005 E6.58736
G1 X104.479 Y29.169 E6.64607
G1 X106.690 Y31.009 E6.70477
G1 X108.312 Y33.385 E6.76347
G1 X109.347 Y37.022 E6.84063
G1 X110.664 Y50.954 E7.12624
G1 X110.814 Y53.232 E7.17282
G1 X110.849 Y54.663 E7.20205
G1 X110.884 Y75.949 E7.63646
G1 X110.845 Y76.862 E7.65510
G1 X110.666 Y78.924 E7.69734
G1 X109.347 Y92.972 E7.98528
G1 X108.685 Y95.771 E8.04399
G1 X107.280 Y98.281 E8.10269
G1 X105.241 Y100.310 E8.16139
G1 X102.724 Y101.702 E8.22010
G1 X99.000 Y102.393 E8.29740
G1 X71.000 Y102.393 E8.86882
G1 X68.151 Y101.995 E8.92753
G1 X65.521 Y100.831 E8.98623
G1 X63.310 Y98.991 E9.04494
G1 X61.688 Y96.615 E9.10364
G1 X60.653 Y92.978 E9.18080
G1 X59.358 Y79.281 E9.46158
G1 X59.201 Y76.483 E9.51878
G1 X59.184 Y75.644 E9.53591
G1 X59.155 Y54.677 E9.96380
G1 X59.182 Y53.205 E9.99385
G1 X59.335 Y50.909 E10.04082
G1 X60.654 Y37.018 E10.32558
G1 X61.306 Y34.278 E10.38306
G1 X61.512 Y34.265 F1800.000
G1 X62.916 Y31.786 E10.44120 F1500.000
G1 X64.951 Y29.792 E10.49935
G1 X67.458 Y28.439 E10.55749
G1 X71.000 Y27.804 E10.63093
G1 X99.000 Y27.804 E11.20236
G1 X101.821 Y28.202 E11.26050
G1 X104.422 Y29.365 E11.31865
G1 X106.599 Y31.202 E11.37679
G1 X108.184 Y33.570 E11.43494
G1 X109.151 Y37.040 E11.50845
G1 X110.469 Y50.973 E11.79406
G1 X110.618 Y53.244 E11.84052
G1 X110.653 Y54.664 E11.86950
G1 X110.687 Y75.950 E12.30391
G1 X110.649 Y76.845 E12.32220
G1 X110.471 Y78.906 E12.36441
G1 X109.152 Y92.953 E12.65235
G1 X108.492 Y95.725 E12.71049
G1 X107.091 Y98.205 E12.76864
G1 X105.058 Y100.202 E12.82678
G1 X102.552 Y101.558 E12.88493
G1 X99.000 Y102.196 E12.95858
G1 X71.000 Y102.196 E13.53001
G1 X68.179 Y101.798 E13.58815
G1 X65.578 Y100.635 E13.64630
G1 X63.401 Y98.798 E13.70444
G1 X61.816 Y96.430 E13.76259
G1 X60.849 Y92.960 E13.83610
G1 X59.554 Y79.263 E14.11688
G1 X59.397 Y76.473 E14.17391
G1 X59.381 Y75.642 E14.19088
G1 X59.351 Y54.677 E14.61873
G1 X59.378 Y53.218 E14.64852
G1 X59.530 Y50.927 E14.69537
G1 X60.849 Y37.036 E14.98013
G1 X61.498 Y34.324 E15.03705
G1 E14.03705 F1200.00000
G92 E0
G1 X69.920 Y37.553 F1800.000
G1 E1.00000 F1200.00000
G1 X70.553 Y36.920 E1.01826 F1500.000
G1 X99.447 Y36.920 E1.60794
G1 X100.080 Y37.553 E1.62620
G1 X100.080 Y50.160 E1.88349
G1 X100.117 Y50.239 E1.88527
G1 X100.254 Y50.354 E1.88893
G1 X100.411 Y50.395 E1.89224
G1 X100.731 Y50.545 E1.89946
G1 X100.950 Y50.730 E1.90529
G1 X101.513 Y51.543 E1.92548
G1 X101.562 Y52.118 E1.93725
G1 X101.489 Y52.272 E1.94074
G1 X101.488 Y52.357 E1.94248
G1 X101.524 Y52.439 E1.94429
G1 X101.524 Y53.366 E1.96322
G1 X101.490 Y53.481 E1.96567
G1 X101.569 Y54.367 E1.98382
G1 X101.522 Y54.470 E1.98611
G1 X101.583 Y55.155 E2.00015
G1 X101.524 Y55.262 E2.00265
G1 X101.524 Y56.914 E2.03637
G1 X101.377 Y57.292 E2.04463
G1 X101.038 Y57.662 E2.05488
G1 X100.823 Y57.768 E2.05978
G1 X100.774 Y57.828 E2.06136
G1 X100.248 Y58.274 E2.07543
G1 X100.183 Y58.279 E2.07676
G1 X100.080 Y58.392 E2.07987
G1 X100.080 Y71.613 E2.34968
G1 X100.117 Y71.692 E2.35146
G1 X100.483 Y71.998 E2.36121
G1 X100.880 Y72.134 E2.36978
G1 X101.292 Y72.491 E2.38090
G1 X101.486 Y72.886 E2.38987
G1 X101.536 Y73.810 E2.40877
G1 X101.484 Y73.964 E2.41208
G1 X101.487 Y74.038 E2.41359
G1 X101.524 Y74.122 E2.41547
G1 X101.524 Y74.868 E2.43069
G1 X101.658 Y75.648 E2.44684
G1 X101.578 Y75.998 E2.45418
G1 X101.617 Y76.441 E2.46324
G1 X101.547 Y76.524 E2.46546
G1 X101.524 Y76.589 E2.46687
G1 X101.524 Y77.740 E2.49036
G1 X101.570 Y78.018 E2.49611
G1 X101.258 Y78.932 E2.51581
G1 X101.076 Y79.187 E2.52221
G1 X100.771 Y79.427 E2.53013
G1 X100.480 Y79.542 E2.53653
G1 X100.396 Y79.550 E2.53824
G1 X100.315 Y79.601 E2.54019
G1 X100.248 Y79.715 E2.54290
G1 X100.129 Y79.791 E2.54580
G1 X100.080 Y79.880 E2.54785
G1 X100.080 Y92.447 E2.80434
G1 X99.447 Y93.080 E2.82259
G1 X70.553 Y93.080 E3.41228
G1 X69.920 Y92.447 E3.43054
G1 X69.920 Y79.901 E3.68658
G1 X69.883 Y79.822 E3.68836
G1 X69.539 Y79.534 E3.69751
G1 X69.124 Y79.393 E3.70646
G1 X68.713 Y79.039 E3.71754
G1 X68.518 Y78.647 E3.72647
G1 X68.463 Y77.722 E3.74537
G1 X68.582 Y77.343 E3.75348
G1 X68.565 Y77.211 E3.75620
G1 X68.476 Y77.010 E3.76068
G1 X68.476 Y76.083 E3.77960
G1 X68.500 Y75.993 E3.78149
G1 X68.454 Y75.474 E3.79214
G1 X68.479 Y75.398 E3.79377
G1 X68.450 Y75.080 E3.80028
G1 X68.476 Y75.013 E3.80176
G1 X68.476 Y73.787 E3.82676
G1 X68.431 Y73.553 E3.83163
G1 X68.702 Y72.635 E3.85117
G1 X68.882 Y72.364 E3.85780
G1 X69.193 Y72.110 E3.86601
G1 X69.494 Y71.987 E3.87264
G1 X69.657 Y71.972 E3.87597
G1 X69.726 Y71.936 E3.87757
G1 X69.896 Y71.733 E3.88298
G1 X69.920 Y71.668 E3.88439
G1 X69.920 Y58.294 E4.15733
G1 X69.849 Y58.192 E4.15986
G1 X69.503 Y58.068 E4.16735
G1 X69.304 Y57.943 E4.17215
G1 X68.553 Y57.202 E4.19369
G1 X68.413 Y56.586 E4.20657
G1 X68.476 Y56.395 E4.21068
G1 X68.476 Y55.330 E4.23241
G1 X68.311 Y54.797 E4.24379
G1 X68.462 Y53.798 E4.26442
G1 X68.427 Y53.399 E4.27260
G1 X68.476 Y53.303 E4.27479
G1 X68.476 Y51.640 E4.30874
G1 X68.623 Y51.263 E4.31700
G1 X68.962 Y50.892 E4.32724
G1 X69.191 Y50.769 E4.33256
G1 X69.588 Y50.295 E4.34518
G1 X69.817 Y50.275 E4.34987
G1 X69.920 Y50.162 E4.35298
G1 X69.920 Y37.613 E4.60910
G1 X70.116 Y37.634 F1800.000
G1 X70.634 Y37.116 E4.62403 F1500.000
G1 X99.366 Y37.116 E5.21040
G1 X99.884 Y37.634 E5.22534
G1 X99.884 Y50.252 E5.48284
G1 X99.920 Y50.330 E5.48462
G1 X100.169 Y50.538 E5.49122
G1 X100.352 Y50.584 E5.49507
G1 X100.625 Y50.712 E5.50122
G1 X100.803 Y50.863 E5.50600
G1 X101.322 Y51.611 E5.52458
G1 X101.362 Y52.082 E5.53422
G1 X101.273 Y52.270 E5.53846
G1 X101.272 Y52.355 E5.54019
G1 X101.328 Y52.480 E5.54298
G1 X101.328 Y53.329 E5.56032
G1 X101.291 Y53.453 E5.56295
G1 X101.366 Y54.304 E5.58038
G1 X101.319 Y54.406 E5.58267
G1 X101.380 Y55.091 E5.59671
G1 X101.327 Y55.191 E5.59901
G1 X101.327 Y56.878 E5.63344
G1 X101.208 Y57.186 E5.64020
G1 X100.918 Y57.502 E5.64894
G1 X100.656 Y57.632 E5.65492
G1 X100.596 Y57.722 E5.65713
G1 X100.168 Y58.084 E5.66855
G1 X99.987 Y58.100 E5.67227
G1 X99.884 Y58.212 E5.67538
G1 X99.884 Y71.704 E5.95073
G1 X99.920 Y71.783 E5.95251
G1 X100.387 Y72.173 E5.96492
G1 X100.782 Y72.309 E5.97345
G1 X101.134 Y72.614 E5.98294
G1 X101.292 Y72.936 E5.99027
G1 X101.338 Y73.783 E6.00758
G1 X101.273 Y73.973 E6.01168
G1 X101.276 Y74.047 E6.01319
G1 X101.328 Y74.163 E6.01579
G1 X101.328 Y74.885 E6.03051
G1 X101.458 Y75.641 E6.04618
G1 X101.379 Y75.983 E6.05334
G1 X101.414 Y76.377 E6.06141
G1 X101.351 Y76.453 E6.06342
G1 X101.328 Y76.518 E6.06483
G1 X101.327 Y77.756 E6.09011
G1 X101.368 Y78.002 E6.09519
G1 X101.081 Y78.841 E6.11329
G1 X100.933 Y79.051 E6.11852
G1 X100.673 Y79.255 E6.12527
G1 X100.434 Y79.349 E6.13051
G1 X100.278 Y79.363 E6.13371
G1 X100.197 Y79.414 E6.13566
G1 X100.103 Y79.575 E6.13947
G1 X99.932 Y79.683 E6.14359
G1 X99.884 Y79.772 E6.14565
G1 X99.884 Y92.366 E6.40268
G1 X99.366 Y92.884 E6.41762
G1 X70.634 Y92.884 E7.00398
G1 X70.116 Y92.366 E7.01892
G1 X70.116 Y79.810 E7.27517
G1 X70.080 Y79.731 E7.27695
G1 X69.636 Y79.359 E7.28876
G1 X69.222 Y79.218 E7.29768
G1 X68.871 Y78.916 E7.30714
G1 X68.712 Y78.595 E7.31445
G1 X68.661 Y77.749 E7.33175
G1 X68.781 Y77.367 E7.33991
G1 X68.757 Y77.162 E7.34413
G1 X68.672 Y76.969 E7.34843
G1 X68.672 Y76.120 E7.36576
G1 X68.700 Y76.022 E7.36784
G1 X68.657 Y75.538 E7.37776
G1 X68.682 Y75.415 E7.38032
G1 X68.653 Y75.138 E7.38599
G1 X68.672 Y75.084 E7.38718
G1 X68.672 Y73.768 E7.41403
G1 X68.633 Y73.562 E7.41831
G1 X68.882 Y72.719 E7.43625
G1 X69.029 Y72.497 E7.44168
G1 X69.295 Y72.280 E7.44868
G1 X69.541 Y72.180 E7.45410
G1 X69.755 Y72.161 E7.45850
G1 X69.825 Y72.125 E7.46009
G1 X70.093 Y71.804 E7.46862
G1 X70.116 Y71.739 E7.47003
G1 X70.116 Y58.203 E7.74628
G1 X70.080 Y58.124 E7.74806
G1 X69.937 Y58.005 E7.75184
G1 X69.590 Y57.891 E7.75931
G1 X69.427 Y57.788 E7.76323
G1 X68.732 Y57.102 E7.78316
G1 X68.618 Y56.599 E7.79370
G1 X68.672 Y56.429 E7.79735
G1 X68.672 Y55.246 E7.82148
G1 X68.512 Y54.781 E7.83153
G1 X68.633 Y53.930 E7.84907
G1 X68.663 Y53.837 E7.85105
G1 X68.630 Y53.462 E7.85874
G1 X68.672 Y53.375 E7.86073
G1 X68.672 Y51.677 E7.89538
G1 X68.792 Y51.368 E7.90214
G1 X69.082 Y51.052 E7.91088
G1 X69.315 Y50.927 E7.91629
G1 X69.687 Y50.484 E7.92809
G1 X70.013 Y50.455 E7.93479
G1 X70.116 Y50.342 E7.93790
G1 X70.116 Y37.694 E8.19603
G1 E7.19603 F1200.00000
G92 E0
G1 X70.313 Y50.522 F1800.000
G1 E1.00000 F1200.00000
G1 X70.313 Y37.715 E1.26136 F1500.000
G1 X70.715 Y37.313 E1.27298
G1 X99.285 Y37.313 E1.85602
G1 X99.687 Y37.715 E1.86764
G1 X99.687 Y50.343 E2.12535
G1 X99.724 Y50.422 E2.12713
G1 X100.083 Y50.722 E2.13668
G1 X100.292 Y50.773 E2.14107
G1 X100.518 Y50.879 E2.14616
G1 X100.657 Y50.996 E2.14987
G1 X101.131 Y51.680 E2.16685
G1 X101.162 Y52.046 E2.17435
G1 X101.058 Y52.267 E2.17934
G1 X101.057 Y52.352 E2.18107
G1 X101.131 Y52.521 E2.18484
G1 X101.131 Y53.293 E2.20058
G1 X101.091 Y53.425 E2.20340
G1 X101.163 Y54.240 E2.22010
G1 X101.117 Y54.342 E2.22240
G1 X101.177 Y55.027 E2.23643
G1 X101.116 Y55.100 E2.23838
G1 X101.100 Y55.211 E2.24067
G1 X101.131 Y55.281 E2.24222
G1 X101.131 Y56.841 E2.27405
G1 X101.038 Y57.081 E2.27931
G1 X100.798 Y57.343 E2.28655
G1 X100.535 Y57.460 E2.29242
G1 X100.440 Y57.540 E2.29496
G1 X100.421 Y57.613 E2.29649
G1 X100.089 Y57.894 E2.30537
G1 X99.790 Y57.920 E2.31150
G1 X99.687 Y58.033 E2.31461
G1 X99.687 Y71.940 E2.59843
G1 X99.815 Y72.057 E2.60196
G1 X99.929 Y72.047 E2.60430
G1 X100.323 Y72.376 E2.61477
G1 X100.684 Y72.483 E2.62246
G1 X100.975 Y72.736 E2.63033
G1 X101.098 Y72.987 E2.63603
G1 X101.140 Y73.755 E2.65175
G1 X101.062 Y73.982 E2.65663
G1 X101.066 Y74.056 E2.65814
G1 X101.131 Y74.205 E2.66146
G1 X101.133 Y74.919 E2.67603
G1 X101.257 Y75.634 E2.69086
G1 X101.181 Y75.968 E2.69784
G1 X101.212 Y76.313 E2.70492
G1 X101.155 Y76.381 E2.70672
G1 X101.131 Y76.446 E2.70814
G1 X101.131 Y77.773 E2.73521
G1 X101.166 Y77.986 E2.73961
G1 X100.905 Y78.751 E2.75611
G1 X100.789 Y78.914 E2.76019
G1 X100.574 Y79.083 E2.76577
G1 X100.388 Y79.156 E2.76984
G1 X100.159 Y79.176 E2.77453
G1 X100.079 Y79.227 E2.77648
G1 X99.957 Y79.435 E2.78138
G1 X99.736 Y79.575 E2.78674
G1 X99.687 Y79.664 E2.78880
G1 X99.687 Y92.285 E3.04637
G1 X99.285 Y92.687 E3.05799
G1 X70.715 Y92.687 E3.64103
G1 X70.313 Y92.285 E3.65265
G1 X70.313 Y79.587 E3.91179
G1 X70.185 Y79.470 E3.91532
G1 X70.085 Y79.479 E3.91738
G1 X69.691 Y79.150 E3.92785
G1 X69.320 Y79.044 E3.93573
G1 X69.029 Y78.793 E3.94356
G1 X68.906 Y78.544 E3.94925
G1 X68.859 Y77.775 E3.96496
G1 X68.983 Y77.429 E3.97247
G1 X68.958 Y77.143 E3.97832
G1 X68.869 Y76.928 E3.98308
G1 X68.869 Y76.157 E3.99882
G1 X68.899 Y76.050 E4.00108
G1 X68.859 Y75.601 E4.01027
G1 X68.884 Y75.525 E4.01191
G1 X68.855 Y75.194 E4.01869
G1 X68.869 Y75.155 E4.01953
G1 X68.869 Y73.748 E4.04825
G1 X68.835 Y73.571 E4.05193
G1 X69.062 Y72.803 E4.06827
G1 X69.177 Y72.631 E4.07249
G1 X69.396 Y72.451 E4.07829
G1 X69.588 Y72.373 E4.08251
G1 X69.854 Y72.349 E4.08796
G1 X69.923 Y72.313 E4.08955
G1 X70.289 Y71.876 E4.10120
G1 X70.313 Y71.811 E4.10261
G1 X70.313 Y58.111 E4.38218
G1 X70.276 Y58.032 E4.38396
G1 X70.019 Y57.818 E4.39078
G1 X69.676 Y57.713 E4.39810
G1 X69.550 Y57.634 E4.40115
G1 X68.911 Y57.003 E4.41948
G1 X68.822 Y56.611 E4.42768
G1 X68.869 Y56.463 E4.43085
G1 X68.869 Y55.168 E4.45728
G1 X68.808 Y55.063 E4.45975
G1 X68.712 Y54.764 E4.46617
G1 X68.822 Y53.991 E4.48210
G1 X68.864 Y53.877 E4.48457
G1 X68.833 Y53.526 E4.49176
G1 X68.887 Y53.461 E4.49349
G1 X68.903 Y53.350 E4.49577
G1 X68.869 Y53.273 E4.49749
G1 X68.869 Y51.714 E4.52932
G1 X68.962 Y51.473 E4.53458
G1 X69.202 Y51.212 E4.54182
G1 X69.439 Y51.085 E4.54732
G1 X69.785 Y50.672 E4.55830
G1 X70.210 Y50.634 E4.56701
G1 X70.272 Y50.566 E4.56890
G1 X70.509 Y50.702 F1800.000
G1 X70.509 Y37.797 E4.83226 F1500.000
G1 X70.797 Y37.509 E4.84056
G1 X99.203 Y37.509 E5.42029
G1 X99.491 Y37.797 E5.42859
G1 X99.491 Y50.435 E5.68651
G1 X99.528 Y50.514 E5.68829
G1 X100.010 Y50.917 E5.70112
G1 X100.232 Y50.962 E5.70574
G1 X100.411 Y51.045 E5.70977
G1 X100.510 Y51.129 E5.71243
G1 X100.939 Y51.749 E5.72781
G1 X100.961 Y52.010 E5.73316
G1 X100.842 Y52.265 E5.73890
G1 X100.841 Y52.350 E5.74064
G1 X100.935 Y52.563 E5.74538
G1 X100.935 Y53.256 E5.75953
G1 X100.877 Y53.405 E5.76279
G1 X100.900 Y53.495 E5.76469
G1 X100.960 Y54.176 E5.77865
G1 X100.914 Y54.279 E5.78094
G1 X100.975 Y54.964 E5.79498
G1 X100.887 Y55.068 E5.79775
G1 X100.872 Y55.179 E5.80004
G1 X100.935 Y55.322 E5.80324
G1 X100.935 Y56.804 E5.83348
G1 X100.868 Y56.976 E5.83723
G1 X100.678 Y57.183 E5.84297
G1 X100.513 Y57.265 E5.84673
G1 X100.380 Y57.276 E5.84945
G1 X100.285 Y57.357 E5.85199
G1 X100.247 Y57.503 E5.85507
G1 X100.010 Y57.703 E5.86142
G1 X99.594 Y57.740 E5.86994
G1 X99.491 Y57.853 E5.87305
G1 X99.491 Y72.154 E6.16492
G1 X99.618 Y72.271 E6.16845
G1 X99.865 Y72.249 E6.17351
G1 X100.259 Y72.579 E6.18398
G1 X100.333 Y72.602 E6.18558
G1 X100.395 Y72.597 E6.18684
G1 X100.585 Y72.658 E6.19092
G1 X100.816 Y72.858 E6.19716
G1 X100.904 Y73.037 E6.20123
G1 X100.942 Y73.728 E6.21535
G1 X100.862 Y73.930 E6.21977
G1 X100.845 Y74.042 E6.22209
G1 X100.935 Y74.246 E6.22664
G1 X100.936 Y74.936 E6.24072
G1 X101.057 Y75.628 E6.25505
G1 X100.979 Y75.910 E6.26102
G1 X101.009 Y76.250 E6.26799
G1 X100.958 Y76.310 E6.26959
G1 X100.935 Y76.375 E6.27100
G1 X100.928 Y77.756 E6.29919
G1 X100.964 Y77.969 E6.30361
G1 X100.728 Y78.661 E6.31851
G1 X100.646 Y78.777 E6.32142
G1 X100.475 Y78.910 E6.32584
G1 X100.343 Y78.963 E6.32875
G1 X100.041 Y78.990 E6.33492
G1 X99.961 Y79.041 E6.33687
G1 X99.812 Y79.294 E6.34287
G1 X99.540 Y79.467 E6.34946
G1 X99.491 Y79.556 E6.35152
G1 X99.491 Y92.203 E6.60963
G1 X99.203 Y92.491 E6.61793
G1 X70.797 Y92.491 E7.19766
G1 X70.509 Y92.203 E7.20596
G1 X70.509 Y79.372 E7.46782
G1 X70.382 Y79.255 E7.47135
G1 X70.149 Y79.276 E7.47612
G1 X69.755 Y78.947 E7.48659
G1 X69.681 Y78.923 E7.48819
G1 X69.608 Y78.930 E7.48968
G1 X69.418 Y78.869 E7.49374
G1 X69.187 Y78.670 E7.49996
G1 X69.099 Y78.492 E7.50401
G1 X69.057 Y77.802 E7.51813
G1 X69.119 Y77.620 E7.52204
G1 X69.162 Y77.570 E7.52339
G1 X69.186 Y77.494 E7.52502
G1 X69.161 Y77.210 E7.53085
G1 X69.172 Y77.130 E7.53249
G1 X69.065 Y76.886 E7.53792
G1 X69.065 Y76.193 E7.55206
G1 X69.099 Y76.078 E7.55451
G1 X69.062 Y75.665 E7.56298
G1 X69.087 Y75.589 E7.56461
G1 X69.057 Y75.250 E7.57156
G1 X69.074 Y73.762 E7.60193
G1 X69.037 Y73.580 E7.60571
G1 X69.242 Y72.887 E7.62046
