; generated by Slic3r 1.2.9 on 2018-11-01 at 18:48:43

; external perimeters extrusion width = 0.40mm
; perimeters extrusion width = 0.40mm
; infill extrusion width = 0.32mm
; solid infill extrusion width = 0.32mm
; top infill extrusion width = 0.36mm
; support material extrusion width = 0.30mm

M107
M190 S110
M104 S239
M109 S239
G28 ; home all axes
G21 ; set units to millimeters
G90 ; use absolute coordinates
M82 ; use absolute distances for extrusion
G92 E0
G1 E-1.00000 F1200.00000
G92 E0
G1 Z0.100 F1800.000
G1 X50.621 Y34.363 F1800.000
G1 E1.00000 F1200.00000
G1 X52.469 Y32.061 E1.15422 F2400.000
G1 X54.865 Y30.337 E1.30845
G1 X57.635 Y29.316 E1.46267
G1 X60.000 Y29.058 E1.58695
G1 X110.000 Y29.058 E4.19920
G1 X112.925 Y29.456 E4.35342
G1 X115.637 Y30.621 E4.50765
G1 X117.939 Y32.469 E4.66187
G1 X119.663 Y34.865 E4.81610
G1 X120.684 Y37.635 E4.97032
G1 X120.942 Y40.000 E5.09460
G1 X120.942 Y90.000 E7.70685
G1 X120.544 Y92.925 E7.86107
G1 X119.379 Y95.637 E8.01530
G1 X117.531 Y97.939 E8.16952
G1 X115.135 Y99.663 E8.32374
G1 X112.365 Y100.684 E8.47797
G1 X110.000 Y100.942 E8.60225
G1 X60.000 Y100.942 E11.21450
G1 X57.075 Y100.544 E11.36872
G1 X54.363 Y99.379 E11.52294
G1 X52.061 Y97.531 E11.67717
G1 X50.337 Y95.135 E11.83139
G1 X49.316 Y92.365 E11.98562
G1 X49.058 Y90.000 E12.10990
G1 X49.058 Y40.000 E14.72214
G1 X49.456 Y37.075 E14.87637
G1 X50.598 Y34.418 E15.02746
G1 X50.934 Y34.453 F1800.000
G1 X52.778 Y32.202 E15.17944 F2400.000
G1 X55.163 Y30.536 E15.33142
G1 X57.910 Y29.579 E15.48341
G1 X60.000 Y29.372 E15.59314
G1 X110.000 Y29.372 E18.20539
G1 X112.882 Y29.770 E18.35737
G1 X115.547 Y30.934 E18.50936
G1 X117.798 Y32.778 E18.66134
G1 X119.464 Y35.163 E18.81332
G1 X120.421 Y37.910 E18.96531
G1 X120.628 Y40.000 E19.07504
G1 X120.628 Y90.000 E21.68729
G1 X120.230 Y92.882 E21.83927
G1 X119.066 Y95.547 E21.99125
G1 X117.222 Y97.798 E22.14324
G1 X114.837 Y99.464 E22.29522
G1 X112.090 Y100.421 E22.44720
G1 X110.000 Y100.628 E22.55694
G1 X60.000 Y100.628 E25.16918
G1 X57.118 Y100.230 E25.32117
G1 X54.453 Y99.066 E25.47315
G1 X52.202 Y97.222 E25.62514
G1 X50.536 Y94.837 E25.77712
G1 X49.579 Y92.090 E25.92910
G1 X49.372 Y90.000 E26.03884
G1 X49.372 Y40.000 E28.65108
G1 X49.770 Y37.118 E28.80307
G1 X50.910 Y34.507 E28.95191
G1 X51.247 Y34.544 F1800.000
G1 X53.086 Y32.346 E29.10162 F2400.000
G1 X55.459 Y30.739 E29.25133
G1 X58.182 Y29.847 E29.40104
G1 X60.000 Y29.686 E29.49638
G1 X110.000 Y29.686 E32.10863
G1 X112.838 Y30.084 E32.25834
G1 X115.456 Y31.247 E32.40805
G1 X117.654 Y33.086 E32.55776
G1 X119.261 Y35.459 E32.70747
G1 X120.153 Y38.182 E32.85718
G1 X120.314 Y40.000 E32.95252
G1 X120.314 Y90.000 E35.56476
G1 X119.916 Y92.838 E35.71447
G1 X118.753 Y95.456 E35.86418
G1 X116.914 Y97.654 E36.01389
G1 X114.541 Y99.261 E36.16360
G1 X111.818 Y100.153 E36.31331
G1 X110.000 Y100.314 E36.40865
G1 X60.000 Y100.314 E39.02090
G1 X57.162 Y99.916 E39.17061
G1 X54.544 Y98.753 E39.32032
G1 X52.346 Y96.914 E39.47003
G1 X50.739 Y94.541 E39.61974
G1 X49.847 Y91.818 E39.76945
G1 X49.686 Y90.000 E39.86479
G1 X49.686 Y40.000 E42.47703
G1 X50.084 Y37.162 E42.62674
G1 X51.223 Y34.598 E42.77332
G1 E41.77332 F1200.00000
G92 E0
G1 X58.586 Y39.414 F1800.000
G1 E1.00000 F1200.00000
G1 X59.414 Y38.586 E1.06119 F2400.000
G1 X110.586 Y38.586 E3.73462
G1 X111.414 Y39.414 E3.79581
G1 X111.414 Y90.586 E6.46924
G1 X110.586 Y91.414 E6.53043
G1 X59.414 Y91.414 E9.20386
G1 X58.586 Y90.586 E9.26505
G1 X58.586 Y39.474 E11.93534
G1 X58.900 Y39.545 F1800.000
G1 X59.545 Y38.900 E11.98293 F2400.000
G1 X110.455 Y38.900 E14.64277
G1 X111.100 Y39.545 E14.69036
G1 X111.100 Y90.455 E17.35019
G1 X110.455 Y91.100 E17.39778
G1 X59.545 Y91.100 E20.05762
G1 X58.900 Y90.455 E20.10521
G1 X58.900 Y39.605 E22.76191
G1 X59.215 Y39.675 F1800.000
G1 X59.675 Y39.215 E22.79590 F2400.000
G1 X110.325 Y39.215 E25.44214
G1 X110.785 Y39.675 E25.47613
G1 X110.785 Y90.325 E28.12237
G1 X110.325 Y90.785 E28.15636
G1 X59.675 Y90.785 E30.80260
G1 X59.215 Y90.325 E30.83659
G1 X59.215 Y39.735 E33.47970
G1 X59.529 Y39.805 F1800.000
G1 X59.805 Y39.529 E33.50009 F2400.000
G1 X110.195 Y39.529 E36.13273
G1 X110.471 Y39.805 E36.15313
G1 X110.471 Y90.195 E38.78577
G1 X110.195 Y90.471 E38.80617
G1 X59.805 Y90.471 E41.43881
G1 X59.529 Y90.195 E41.45920
G1 X59.529 Y39.865 E44.08871
G1 X59.935 Y39.843 F1800.000
G1 X110.065 Y39.843 E46.70775 F2400.000
G1 X110.157 Y39.935 E46.71455
G1 X110.157 Y90.065 E49.33359
G1 X110.065 Y90.157 E49.34039
G1 X59.935 Y90.157 E51.95944
G1 X59.843 Y90.065 E51.96624
G1 X59.843 Y39.935 E54.58528
G1 X59.893 Y39.885 E54.58894
G1 E53.58894 F1200.00000
G92 E0
G1 X109.800 Y89.800 F1800.000
G1 E1.00000 F1200.00000
G1 X60.200 Y89.800 E3.59135 F720.000
G1 X60.200 Y40.200 E6.18269
G1 X109.800 Y40.200 E8.77404
G1 X109.800 Y89.740 E11.36225
G1 X109.454 Y89.600 F1800.000
G1 X109.486 Y89.486 F1800.000
G1 X60.514 Y89.486 E13.92077 F960.000
G1 X60.514 Y40.514 E16.47930
G1 X109.486 Y40.514 E19.03782
G1 X109.486 Y89.426 E21.59320
G1 E20.59320 F1200.00000
G92 E0
G1 X99.432 Y79.134 F1800.000
G1 E1.00000 F1200.00000
G1 X98.548 Y79.982 E1.06400 F720.000
G1 X97.876 Y80.564 E1.11044
G1 X97.213 Y81.090 E1.15465
G1 X96.528 Y81.587 E1.19886
G1 X95.823 Y82.056 E1.24312
G1 X94.732 Y82.701 E1.30930
G1 X93.981 Y83.094 E1.35362
G1 X92.828 Y83.622 E1.41986
G1 X91.644 Y84.076 E1.48611
G1 X90.838 Y84.338 E1.53036
G1 X90.024 Y84.565 E1.57457
G1 X89.200 Y84.759 E1.61877
G1 X88.369 Y84.917 E1.66297
G1 X87.532 Y85.041 E1.70717
G1 X86.689 Y85.129 E1.75143
G1 X85.423 Y85.196 E1.81768
G1 X84.155 Y85.182 E1.88392
G1 X83.310 Y85.129 E1.92818
G1 X82.468 Y85.041 E1.97239
G1 X81.631 Y84.917 E2.01659
G1 X80.799 Y84.758 E2.06084
G1 X79.568 Y84.456 E2.12709
G1 X78.358 Y84.077 E2.19333
G1 X77.564 Y83.781 E2.23759
G1 X76.783 Y83.453 E2.28185
G1 X75.642 Y82.902 E2.34804
G1 X74.900 Y82.494 E2.39230
G1 X74.176 Y82.056 E2.43650
G1 X73.471 Y81.587 E2.48076
G1 X72.453 Y80.831 E2.54700
G1 X71.484 Y80.012 E2.61324
G1 X70.866 Y79.432 E2.65756
G1 X69.989 Y78.517 E2.72375
G1 X69.436 Y77.876 E2.76800
G1 X68.910 Y77.213 E2.81221
G1 X68.412 Y76.528 E2.85646
G1 X67.722 Y75.465 E2.92266
G1 X67.298 Y74.731 E2.96697
G1 X66.723 Y73.602 E3.03316
G1 X66.378 Y72.827 E3.07747
G1 X65.924 Y71.644 E3.14366
G1 X65.662 Y70.838 E3.18792
G1 X65.435 Y70.024 E3.23212
G1 X65.241 Y69.199 E3.27638
G1 X65.017 Y67.952 E3.34257
G1 X64.911 Y67.112 E3.38682
G1 X64.840 Y66.268 E3.43103
G1 X64.804 Y65.422 E3.47529
G1 X64.818 Y64.155 E3.54147
G1 X64.871 Y63.310 E3.58574
G1 X64.959 Y62.468 E3.62995
G1 X65.090 Y61.589 E3.67639
G1 X65.333 Y60.388 E3.74039
G1 X65.544 Y59.567 E3.78470
G1 X65.923 Y58.358 E3.85088
G1 X66.219 Y57.563 E3.89520
G1 X66.722 Y56.400 E3.96139
G1 X67.099 Y55.641 E4.00564
G1 X67.507 Y54.899 E4.04990
G1 X68.174 Y53.822 E4.11609
G1 X68.658 Y53.127 E4.16035
G1 X69.169 Y52.453 E4.20455
G1 X69.709 Y51.800 E4.24881
G1 X70.568 Y50.867 E4.31505
G1 X71.483 Y49.989 E4.38130
G1 X72.124 Y49.436 E4.42556
G1 X72.787 Y48.910 E4.46976
G1 X73.472 Y48.412 E4.51402
G1 X74.535 Y47.722 E4.58021
G1 X75.269 Y47.298 E4.62452
G1 X76.398 Y46.723 E4.69071
G1 X77.173 Y46.378 E4.73502
G1 X78.356 Y45.924 E4.80121
G1 X79.162 Y45.662 E4.84547
G1 X79.976 Y45.435 E4.88967
G1 X80.801 Y45.241 E4.93393
G1 X82.048 Y45.017 E5.00012
G1 X82.889 Y44.911 E5.04438
G1 X83.743 Y44.839 E5.08920
G1 X84.578 Y44.804 E5.13284
G1 X85.845 Y44.818 E5.19903
G1 X86.690 Y44.871 E5.24329
G1 X87.532 Y44.959 E5.28749
G1 X88.370 Y45.083 E5.33175
G1 X89.612 Y45.333 E5.39794
G1 X90.433 Y45.544 E5.44225
G1 X91.642 Y45.923 E5.50844
G1 X92.437 Y46.219 E5.55275
G1 X93.600 Y46.722 E5.61894
G1 X94.359 Y47.099 E5.66320
G1 X95.101 Y47.507 E5.70746
G1 X96.178 Y48.174 E5.77364
G1 X96.873 Y48.658 E5.81790
G1 X97.547 Y49.169 E5.86211
G1 X98.200 Y49.709 E5.90636
G1 X99.133 Y50.568 E5.97261
G1 X100.011 Y51.483 E6.03885
G1 X100.564 Y52.124 E6.08311
G1 X101.090 Y52.787 E6.12731
G1 X101.587 Y53.472 E6.17152
G1 X102.078 Y54.213 E6.21798
G1 X102.701 Y55.268 E6.28197
G1 X103.112 Y56.057 E6.32847
G1 X103.622 Y57.172 E6.39252
G1 X104.076 Y58.356 E6.45876
G1 X104.338 Y59.162 E6.50302
G1 X104.565 Y59.976 E6.54722
G1 X104.759 Y60.800 E6.59143
G1 X104.917 Y61.631 E6.63563
G1 X105.041 Y62.468 E6.67983
G1 X105.129 Y63.311 E6.72409
G1 X105.196 Y64.577 E6.79034
G1 X105.182 Y65.845 E6.85658
G1 X105.129 Y66.690 E6.90084
G1 X105.041 Y67.532 E6.94504
G1 X104.917 Y68.369 E6.98925
G1 X104.758 Y69.201 E7.03350
G1 X104.456 Y70.432 E7.09975
G1 X104.077 Y71.642 E7.16599
G1 X103.781 Y72.436 E7.21025
G1 X103.453 Y73.217 E7.25450
G1 X102.902 Y74.358 E7.32069
G1 X102.494 Y75.100 E7.36495
G1 X102.056 Y75.824 E7.40915
G1 X101.587 Y76.529 E7.45342
G1 X100.831 Y77.547 E7.51966
G1 X100.012 Y78.516 E7.58590
G1 X99.473 Y79.090 E7.62708
G1 X99.534 Y79.521 F1800.000
G1 X99.655 Y79.355 F1800.000
G1 X98.760 Y80.215 E7.69192 F960.000
G1 X98.077 Y80.806 E7.73915
G1 X97.403 Y81.340 E7.78406
G1 X96.708 Y81.845 E7.82895
G1 X95.990 Y82.322 E7.87398
G1 X94.885 Y82.976 E7.94103
G1 X94.119 Y83.376 E7.98620
G1 X92.950 Y83.912 E8.05339
G1 X91.749 Y84.372 E8.12058
G1 X90.929 Y84.639 E8.16561
G1 X90.102 Y84.870 E8.21050
G1 X89.265 Y85.066 E8.25540
G1 X88.421 Y85.227 E8.30028
G1 X87.571 Y85.353 E8.34517
G1 X86.714 Y85.443 E8.39020
G1 X85.430 Y85.510 E8.45740
G1 X84.144 Y85.496 E8.52458
G1 X83.283 Y85.442 E8.56962
G1 X82.429 Y85.353 E8.61451
G1 X81.579 Y85.227 E8.65940
G1 X80.732 Y85.066 E8.70443
G1 X79.483 Y84.759 E8.77162
G1 X78.256 Y84.374 E8.83881
G1 X77.448 Y84.074 E8.88384
G1 X76.654 Y83.740 E8.92887
G1 X75.498 Y83.181 E8.99592
G1 X74.743 Y82.766 E9.04095
G1 X74.008 Y82.321 E9.08584
G1 X73.290 Y81.844 E9.13088
G1 X72.257 Y81.077 E9.19807
G1 X71.275 Y80.247 E9.26525
G1 X70.645 Y79.655 E9.31043
G1 X69.757 Y78.729 E9.37748
G1 X69.193 Y78.076 E9.42251
G1 X68.660 Y77.403 E9.46740
G1 X68.153 Y76.706 E9.51243
G1 X67.454 Y75.629 E9.57948
G1 X67.022 Y74.881 E9.62465
G1 X66.439 Y73.737 E9.69170
G1 X66.088 Y72.947 E9.73687
G1 X65.628 Y71.749 E9.80392
G1 X65.361 Y70.929 E9.84895
G1 X65.130 Y70.102 E9.89384
G1 X64.933 Y69.263 E9.93888
G1 X64.706 Y67.999 E10.00592
G1 X64.598 Y67.144 E10.05095
G1 X64.526 Y66.288 E10.09585
G1 X64.490 Y65.427 E10.14088
G1 X64.504 Y64.144 E10.20793
G1 X64.558 Y63.283 E10.25296
G1 X64.648 Y62.428 E10.29787
G1 X64.781 Y61.534 E10.34510
G1 X65.027 Y60.318 E10.40994
G1 X65.242 Y59.481 E10.45510
G1 X65.626 Y58.256 E10.52215
G1 X65.927 Y57.446 E10.56732
G1 X66.437 Y56.268 E10.63437
G1 X66.820 Y55.496 E10.67940
G1 X67.235 Y54.741 E10.72443
G1 X67.912 Y53.650 E10.79148
G1 X68.404 Y52.942 E10.83651
G1 X68.923 Y52.258 E10.88141
G1 X69.473 Y51.593 E10.92644
G1 X70.343 Y50.647 E10.99363
G1 X71.271 Y49.757 E11.06082
G1 X71.924 Y49.193 E11.10585
G1 X72.597 Y48.660 E11.15074
G1 X73.294 Y48.153 E11.19577
G1 X74.371 Y47.454 E11.26282
G1 X75.119 Y47.022 E11.30799
G1 X76.263 Y46.439 E11.37504
G1 X77.053 Y46.088 E11.42021
G1 X78.251 Y45.628 E11.48726
G1 X79.071 Y45.361 E11.53229
G1 X79.898 Y45.130 E11.57718
G1 X80.737 Y44.933 E11.62222
G1 X82.000 Y44.706 E11.68926
G1 X82.856 Y44.598 E11.73430
G1 X83.724 Y44.525 E11.77981
G1 X84.573 Y44.490 E11.82423
G1 X85.856 Y44.504 E11.89127
G1 X86.717 Y44.558 E11.93630
G1 X87.571 Y44.647 E11.98119
G1 X88.424 Y44.773 E12.02622
G1 X89.682 Y45.027 E12.09327
G1 X90.519 Y45.242 E12.13844
G1 X91.744 Y45.626 E12.20549
G1 X92.554 Y45.927 E12.25066
G1 X93.732 Y46.437 E12.31771
G1 X94.504 Y46.820 E12.36274
G1 X95.259 Y47.235 E12.40777
G1 X96.350 Y47.912 E12.47482
G1 X97.058 Y48.404 E12.51985
G1 X97.742 Y48.923 E12.56475
G1 X98.407 Y49.473 E12.60978
G1 X99.353 Y50.343 E12.67697
G1 X100.243 Y51.271 E12.74416
G1 X100.807 Y51.924 E12.78919
G1 X101.340 Y52.597 E12.83408
G1 X101.846 Y53.293 E12.87899
G1 X102.345 Y54.046 E12.92622
G1 X102.976 Y55.115 E12.99108
G1 X103.395 Y55.919 E13.03844
G1 X103.912 Y57.051 E13.10342
G1 X104.372 Y58.251 E13.17060
G1 X104.639 Y59.071 E13.21563
G1 X104.870 Y59.898 E13.26052
G1 X105.066 Y60.735 E13.30542
G1 X105.227 Y61.579 E13.35030
G1 X105.353 Y62.429 E13.39519
G1 X105.443 Y63.286 E13.44022
G1 X105.510 Y64.570 E13.50742
G1 X105.496 Y65.856 E13.57460
G1 X105.442 Y66.717 E13.61964
G1 X105.353 Y67.571 E13.66453
G1 X105.227 Y68.421 E13.70942
G1 X105.066 Y69.268 E13.75445
G1 X104.759 Y70.517 E13.82164
G1 X104.374 Y71.744 E13.88883
G1 X104.074 Y72.552 E13.93386
G1 X103.740 Y73.346 E13.97889
G1 X103.181 Y74.502 E14.04594
G1 X102.766 Y75.257 E14.09097
G1 X102.321 Y75.992 E14.13586
G1 X101.844 Y76.710 E14.18090
G1 X101.077 Y77.743 E14.24809
G1 X100.247 Y78.725 E14.31527
G1 X99.696 Y79.311 E14.35730
G1 E13.35730 F1200.00000
G92 E0
G1 X93.374 Y83.739 F1800.000
G1 E1.00000 F1200.00000
G1 X109.502 Y83.739 E1.84468 F720.000
G1 X109.502 Y83.424 E1.86117
G1 X94.060 Y83.424 E2.66990
G1 X94.663 Y83.109 E2.70550
G1 X109.502 Y83.109 E3.48267
G1 X109.502 Y82.794 E3.49917
G1 X95.213 Y82.794 E4.24750
G1 X95.746 Y82.479 E4.27990
G1 X109.502 Y82.479 E5.00034
G1 X109.502 Y82.164 E5.01683
G1 X96.240 Y82.164 E5.71140
G1 X96.708 Y81.849 E5.74096
G1 X109.502 Y81.849 E6.41100
G1 X109.502 Y81.534 E6.42750
G1 X97.142 Y81.534 E7.07484
G1 X97.556 Y81.219 E7.10209
G1 X109.502 Y81.219 E7.72774
G1 X109.502 Y80.904 E7.74423
G1 X97.953 Y80.904 E8.34907
G1 X98.322 Y80.589 E8.37449
G1 X109.502 Y80.589 E8.95998
G1 X109.502 Y80.274 E8.97647
G1 X98.686 Y80.274 E9.54291
G1 X99.016 Y79.959 E9.56680
G1 X109.502 Y79.959 E10.11596
G1 X109.502 Y79.644 E10.13246
G1 X99.344 Y79.644 E10.66445
G1 X99.665 Y79.329 E10.68800
G1 X109.502 Y79.329 E11.20317
G1 X109.502 Y79.015 E11.21967
G1 X99.961 Y79.015 E11.71935
G1 X100.251 Y78.700 E11.74176
G1 X109.502 Y78.700 E12.22627
G1 X109.502 Y78.385 E12.24277
G1 X100.517 Y78.385 E12.71334
G1 X100.783 Y78.070 E12.73493
G1 X109.502 Y78.070 E13.19156
G1 X109.502 Y77.755 E13.20806
G1 X101.047 Y77.755 E13.65088
G1 X101.280 Y77.440 E13.67142
G1 X109.502 Y77.440 E14.10199
G1 X109.502 Y77.125 E14.11849
G1 X101.514 Y77.125 E14.53681
G1 X101.748 Y76.810 E14.55736
G1 X109.502 Y76.810 E14.96343
G1 X109.502 Y76.495 E14.97992
G1 X101.963 Y76.495 E15.37476
G1 X102.172 Y76.180 E15.39457
G1 X109.502 Y76.180 E15.77845
G1 X109.502 Y75.865 E15.79494
G1 X102.372 Y75.865 E16.16836
G1 X102.563 Y75.550 E16.18764
G1 X109.502 Y75.550 E16.55106
G1 X109.502 Y75.235 E16.56756
G1 X102.750 Y75.235 E16.92114
G1 X102.924 Y74.920 E16.93997
G1 X109.502 Y74.920 E17.28448
G1 X109.502 Y74.605 E17.30098
G1 X103.097 Y74.605 E17.63642
G1 X103.254 Y74.291 E17.65486
G1 X109.502 Y74.291 E17.98207
G1 X109.502 Y73.976 E17.99856
G1 X103.406 Y73.976 E18.31780
G1 X103.558 Y73.661 E18.33612
G1 X109.502 Y73.661 E18.64738
G1 X109.502 Y73.346 E18.66387
G1 X103.709 Y73.346 E18.96724
G1 X103.842 Y73.031 E18.98514
G1 X109.502 Y73.031 E19.28157
G1 X109.502 Y72.716 E19.29807
G1 X103.974 Y72.716 E19.58757
G1 X104.098 Y72.401 E19.60530
G1 X109.502 Y72.401 E19.88831
G1 X109.502 Y72.086 E19.90480
G1 X104.215 Y72.086 E20.18167
G1 X104.332 Y71.771 E20.19927
G1 X109.502 Y71.771 E20.47001
G1 X109.502 Y71.456 E20.48650
G1 X104.431 Y71.456 E20.75205
G1 X104.530 Y71.141 E20.76933
G1 X109.502 Y71.141 E21.02971
G1 X109.502 Y70.826 E21.04620
G1 X104.629 Y70.826 E21.30141
G1 X104.726 Y70.511 E21.31867
G1 X109.502 Y70.511 E21.56878
G1 X109.502 Y70.196 E21.58527
G1 X104.803 Y70.196 E21.83133
G1 X104.881 Y69.881 E21.84832
G1 X109.502 Y69.881 E22.09032
G1 X109.502 Y69.567 E22.10682
G1 X104.958 Y69.567 E22.34477
G1 X105.034 Y69.252 E22.36174
G1 X109.502 Y69.252 E22.59572
G1 X109.502 Y68.937 E22.61222
G1 X105.094 Y68.937 E22.84306
G1 X105.154 Y68.622 E22.85985
G1 X109.502 Y68.622 E23.08755
G1 X109.502 Y68.307 E23.10404
G1 X105.209 Y68.307 E23.32887
G1 X105.255 Y67.992 E23.34554
G1 X109.502 Y67.992 E23.56794
G1 X109.502 Y67.677 E23.58443
G1 X105.302 Y67.677 E23.80439
G1 X105.339 Y67.362 E23.82100
G1 X109.502 Y67.362 E24.03900
G1 X109.502 Y67.047 E24.05550
G1 X105.372 Y67.047 E24.27176
G1 X105.405 Y66.732 E24.28835
G1 X109.502 Y66.732 E24.50288
G1 X109.502 Y66.417 E24.51938
G1 X105.426 Y66.417 E24.73285
G1 X105.445 Y66.102 E24.74938
G1 X109.502 Y66.102 E24.96182
G1 X109.502 Y65.787 E24.97831
G1 X105.461 Y65.787 E25.18990
G1 X105.465 Y65.472 E25.20640
G1 X109.502 Y65.472 E25.41782
