; generated by Slic3r 1.2.9 on 2018-10-23 at 23:57:11

; external perimeters extrusion width = 0.40mm
; perimeters extrusion width = 0.40mm
; infill extrusion width = 0.38mm
; solid infill extrusion width = 0.32mm
; top infill extrusion width = 0.36mm
; support material extrusion width = 0.40mm

M107
M190 S110
M104 S235
M109 S235
G28 ; home all axes
G21 ; set units to millimeters
G90 ; use absolute coordinates
M82 ; use absolute distances for extrusion
G92 E0
G1 E-1.00000 F1200.00000
G92 E0
G1 Z0.335 F1800.000
G1 X66.108 Y47.786 F1800.000
G1 E1.00000 F1200.00000
G1 X67.900 Y46.025 E1.13128 F1950.000
G1 X70.153 Y44.912 E1.26256
G1 X72.500 Y44.558 E1.38657
G1 X97.500 Y44.558 E2.69269
G1 X99.981 Y44.955 E2.82397
G1 X102.214 Y46.108 E2.95525
G1 X103.975 Y47.900 E3.08653
G1 X105.088 Y50.153 E3.21781
G1 X105.442 Y52.500 E3.34182
G1 X105.442 Y77.500 E4.64794
G1 X105.045 Y79.981 E4.77922
G1 X103.892 Y82.214 E4.91050
G1 X102.100 Y83.975 E5.04178
G1 X99.847 Y85.088 E5.17306
G1 X97.500 Y85.442 E5.29707
G1 X72.500 Y85.442 E6.60319
G1 X70.019 Y85.045 E6.73447
G1 X67.786 Y83.892 E6.86575
G1 X66.025 Y82.100 E6.99703
G1 X64.912 Y79.847 E7.12831
G1 X64.558 Y77.500 E7.25232
G1 X64.558 Y52.500 E8.55844
G1 X64.955 Y50.019 E8.68972
G1 X66.080 Y47.839 E8.81786
G1 X66.420 Y47.893 F1800.000
G1 X68.204 Y46.196 E8.94650 F1950.000
G1 X70.436 Y45.156 E9.07514
G1 X72.500 Y44.872 E9.18401
G1 X97.500 Y44.872 E10.49013
G1 X99.930 Y45.269 E10.61877
G1 X102.107 Y46.420 E10.74741
G1 X103.804 Y48.204 E10.87605
G1 X104.844 Y50.436 E11.00469
G1 X105.128 Y52.500 E11.11356
G1 X105.128 Y77.500 E12.41968
G1 X104.731 Y79.930 E12.54832
G1 X103.580 Y82.107 E12.67696
G1 X101.796 Y83.804 E12.80560
G1 X99.564 Y84.844 E12.93424
G1 X97.500 Y85.128 E13.04310
G1 X72.500 Y85.128 E14.34923
G1 X70.070 Y84.731 E14.47787
G1 X67.893 Y83.580 E14.60651
G1 X66.196 Y81.796 E14.73514
G1 X65.156 Y79.564 E14.86378
G1 X64.872 Y77.500 E14.97265
G1 X64.872 Y52.500 E16.27877
G1 X65.269 Y50.070 E16.40741
G1 X66.392 Y47.946 E16.53292
G1 X66.732 Y48.003 F1800.000
G1 X68.507 Y46.372 E16.65886 F1950.000
G1 X70.716 Y45.407 E16.78481
G1 X72.500 Y45.186 E16.87873
G1 X97.500 Y45.186 E18.18485
G1 X99.878 Y45.583 E18.31079
G1 X101.997 Y46.732 E18.43674
G1 X103.628 Y48.507 E18.56268
G1 X104.593 Y50.716 E18.68863
G1 X104.814 Y52.500 E18.78255
G1 X104.814 Y77.500 E20.08867
G1 X104.417 Y79.878 E20.21461
G1 X103.268 Y81.997 E20.34056
G1 X101.493 Y83.628 E20.46650
G1 X99.284 Y84.593 E20.59245
G1 X97.500 Y84.814 E20.68637
G1 X72.500 Y84.814 E21.99249
G1 X70.122 Y84.417 E22.11843
G1 X68.003 Y83.268 E22.24438
G1 X66.372 Y81.493 E22.37032
G1 X65.407 Y79.284 E22.49627
G1 X65.186 Y77.500 E22.59019
G1 X65.186 Y52.500 E23.89631
G1 X65.583 Y50.122 E24.02225
G1 X66.703 Y48.056 E24.14507
G1 E23.14507 F1200.00000
G92 E0
G1 X97.300 Y77.300 F1800.000
G1 E1.00000 F1200.00000
G1 X72.700 Y77.300 E2.28522 F585.000
G1 X72.700 Y52.700 E3.57045
G1 X97.300 Y52.700 E4.85567
G1 X97.300 Y77.240 E6.13776
G1 E5.13776 F1200.00000
G92 E0
G1 Z0.335 F1800.000
M104 S233 ; set temperature
G1 Z0.735 F1800.000
G1 X97.300 Y77.300 F1800.000
G1 E1.00000 F1200.00000
G1 X72.700 Y77.300 E2.28522 F900.000
G1 X72.700 Y52.700 E3.57045
G1 X97.300 Y52.700 E4.85567
G1 X97.300 Y77.240 E6.13776
G1 E5.13776 F1200.00000
G92 E0
G1 Z1.135 F1800.000
G1 X97.300 Y77.300 F1800.000
G1 E1.00000 F1200.00000
G1 X72.700 Y77.300 E2.28522 F900.000
G1 X72.700 Y52.700 E3.57045
G1 X97.300 Y52.700 E4.85567
G1 X97.300 Y77.240 E6.13776
M106 S249.9
G1 E5.13776 F1200.00000
G92 E0
G1 Z1.535 F1800.000
G1 X97.300 Y77.300 F1800.000
G1 E1.00000 F1200.00000
G1 X72.700 Y77.300 E2.28522 F900.000
G1 X72.700 Y52.700 E3.57045
G1 X97.300 Y52.700 E4.85567
G1 X97.300 Y77.240 E6.13776
G1 E5.13776 F1200.00000
G92 E0
G1 Z1.935 F1800.000
G1 X97.300 Y77.300 F1800.000
G1 E1.00000 F1200.00000
G1 X72.700 Y77.300 E2.28522 F900.000
G1 X72.700 Y52.700 E3.57045
G1 X97.300 Y52.700 E4.85567
G1 X97.300 Y77.240 E6.13776
G1 E5.13776 F1200.00000
G92 E0
G1 Z2.335 F1800.000
G1 X97.300 Y77.300 F1800.000
G1 E1.00000 F1200.00000
G1 X72.700 Y77.300 E2.28522 F900.000
G1 X72.700 Y52.700 E3.57045
G1 X97.300 Y52.700 E4.85567
G1 X97.300 Y77.240 E6.13776
G1 E5.13776 F1200.00000
G92 E0
G1 Z2.735 F1800.000
G1 X97.300 Y77.300 F1800.000
G1 E1.00000 F1200.00000
G1 X72.700 Y77.300 E2.28522 F900.000
G1 X72.700 Y52.700 E3.57045
G1 X97.300 Y52.700 E4.85567
G1 X97.300 Y77.240 E6.13776
G1 E5.13776 F1200.00000
G92 E0
G1 Z3.135 F1800.000
G1 X97.300 Y77.300 F1800.000
G1 E1.00000 F1200.00000
G1 X72.700 Y77.300 E2.28522 F900.000
G1 X72.700 Y52.700 E3.57045
G1 X97.300 Y52.700 E4.85567
G1 X97.300 Y77.240 E6.13776
G1 E5.13776 F1200.00000
G92 E0
G1 Z3.535 F1800.000
G1 X97.300 Y77.300 F1800.000
G1 E1.00000 F1200.00000
G1 X72.700 Y77.300 E2.28522 F900.000
G1 X72.700 Y52.700 E3.57045
G1 X97.300 Y52.700 E4.85567
G1 X97.300 Y77.240 E6.13776
G1 E5.13776 F1200.00000
G92 E0
G1 Z3.935 F1800.000
G1 X97.300 Y77.300 F1800.000
G1 E1.00000 F1200.00000
G1 X72.700 Y77.300 E2.28522 F900.000
G1 X72.700 Y52.700 E3.57045
G1 X97.300 Y52.700 E4.85567
G1 X97.300 Y77.240 E6.13776
G1 E5.13776 F1200.00000
G92 E0
G1 Z4.335 F1800.000
G1 X97.300 Y77.300 F1800.000
G1 E1.00000 F1200.00000
G1 X72.700 Y77.300 E2.28522 F900.000
G1 X72.700 Y52.700 E3.57045
G1 X97.300 Y52.700 E4.85567
G1 X97.300 Y77.240 E6.13776
G1 E5.13776 F1200.00000
G92 E0
G1 Z4.735 F1800.000
G1 X97.300 Y77.300 F1800.000
G1 E1.00000 F1200.00000
G1 X72.700 Y77.300 E2.28522 F900.000
G1 X72.700 Y52.700 E3.57045
G1 X97.300 Y52.700 E4.85567
G1 X97.300 Y77.240 E6.13776
G1 E5.13776 F1200.00000
G92 E0
G1 Z5.135 F1800.000
G1 X97.300 Y77.300 F1800.000
G1 E1.00000 F1200.00000
G1 X72.700 Y77.300 E2.28522 F900.000
G1 X72.700 Y52.700 E3.57045
G1 X97.300 Y52.700 E4.85567
G1 X97.300 Y77.240 E6.13776
G1 E5.13776 F1200.00000
G92 E0
G1 Z5.535 F1800.000
G1 X97.300 Y77.300 F1800.000
G1 E1.00000 F1200.00000
G1 X72.700 Y77.300 E2.28522 F900.000
G1 X72.700 Y52.700 E3.57045
G1 X97.300 Y52.700 E4.85567
G1 X97.300 Y77.240 E6.13776
G1 E5.13776 F1200.00000
G92 E0
G1 Z5.935 F1800.000
G1 X97.300 Y77.300 F1800.000
G1 E1.00000 F1200.00000
G1 X72.700 Y77.300 E2.28522 F900.000
G1 X72.700 Y52.700 E3.57045
G1 X97.300 Y52.700 E4.85567
G1 X97.300 Y77.240 E6.13776
G1 E5.13776 F1200.00000
G92 E0
G1 Z6.335 F1800.000
G1 X97.300 Y77.300 F1800.000
G1 E1.00000 F1200.00000
G1 X72.700 Y77.300 E2.28522 F900.000
G1 X72.700 Y52.700 E3.57045
G1 X97.300 Y52.700 E4.85567
G1 X97.300 Y77.240 E6.13776
G1 E5.13776 F1200.00000
G92 E0
G1 Z6.735 F1800.000
G1 X97.300 Y77.300 F1800.000
G1 E1.00000 F1200.00000
G1 X72.700 Y77.300 E2.28522 F900.000
G1 X72.700 Y52.700 E3.57045
G1 X97.300 Y52.700 E4.85567
G1 X97.300 Y77.240 E6.13776
G1 E5.13776 F1200.00000
G92 E0
G1 Z7.135 F1800.000
G1 X97.300 Y77.300 F1800.000
G1 E1.00000 F1200.00000
G1 X72.700 Y77.300 E2.28522 F900.000
G1 X72.700 Y52.700 E3.57045
G1 X97.300 Y52.700 E4.85567
G1 X97.300 Y77.240 E6.13776
G1 E5.13776 F1200.00000
G92 E0
G1 Z7.535 F1800.000
G1 X97.300 Y77.300 F1800.000
G1 E1.00000 F1200.00000
G1 X72.700 Y77.300 E2.28522 F900.000
G1 X72.700 Y52.700 E3.57045
G1 X97.300 Y52.700 E4.85567
G1 X97.300 Y77.240 E6.13776
G1 E5.13776 F1200.00000
G92 E0
G1 Z7.935 F1800.000
G1 X97.300 Y77.300 F1800.000
G1 E1.00000 F1200.00000
G1 X72.700 Y77.300 E2.28522 F900.000
G1 X72.700 Y52.700 E3.57045
G1 X97.300 Y52.700 E4.85567
G1 X97.300 Y77.240 E6.13776
G1 E5.13776 F1200.00000
G92 E0
G1 Z8.335 F1800.000
G1 X97.300 Y77.300 F1800.000
G1 E1.00000 F1200.00000
G1 X72.700 Y77.300 E2.28522 F900.000
G1 X72.700 Y52.700 E3.57045
G1 X97.300 Y52.700 E4.85567
G1 X97.300 Y77.240 E6.13776
G1 E5.13776 F1200.00000
G92 E0
G1 Z8.735 F1800.000
G1 X97.300 Y77.300 F1800.000
G1 E1.00000 F1200.00000
G1 X72.700 Y77.300 E2.28522 F900.000
G1 X72.700 Y52.700 E3.57045
G1 X97.300 Y52.700 E4.85567
G1 X97.300 Y77.240 E6.13776
G1 E5.13776 F1200.00000
G92 E0
G1 Z9.135 F1800.000
G1 X97.300 Y77.300 F1800.000
G1 E1.00000 F1200.00000
G1 X72.700 Y77.300 E2.28522 F900.000
G1 X72.700 Y52.700 E3.57045
G1 X97.300 Y52.700 E4.85567
G1 X97.300 Y77.240 E6.13776
G1 E5.13776 F1200.00000
G92 E0
G1 Z9.535 F1800.000
G1 X97.300 Y77.300 F1800.000
G1 E1.00000 F1200.00000
G1 X72.700 Y77.300 E2.28522 F900.000
G1 X72.700 Y52.700 E3.57045
G1 X97.300 Y52.700 E4.85567
G1 X97.300 Y77.240 E6.13776
G1 E5.13776 F1200.00000
G92 E0
G1 Z9.935 F1800.000
G1 X97.300 Y77.300 F1800.000
G1 E1.00000 F1200.00000
G1 X72.700 Y77.300 E2.28522 F900.000
G1 X72.700 Y52.700 E3.57045
G1 X97.300 Y52.700 E4.85567
G1 X97.300 Y77.240 E6.13776
G1 E5.13776 F1200.00000
G92 E0
G1 Z10.335 F1800.000
G1 X97.300 Y77.300 F1800.000
G1 E1.00000 F1200.00000
G1 X72.700 Y77.300 E2.28522 F900.000
G1 X72.700 Y52.700 E3.57045
G1 X97.300 Y52.700 E4.85567
G1 X97.300 Y77.240 E6.13776
G1 E5.13776 F1200.00000
G92 E0
G1 Z10.735 F1800.000
G1 X97.300 Y77.300 F1800.000
G1 E1.00000 F1200.00000
G1 X72.700 Y77.300 E2.28522 F900.000
G1 X72.700 Y52.700 E3.57045
G1 X97.300 Y52.700 E4.85567
G1 X97.300 Y77.240 E6.13776
G1 E5.13776 F1200.00000
G92 E0
G1 Z11.135 F1800.000
G1 X97.300 Y77.300 F1800.000
G1 E1.00000 F1200.00000
G1 X72.700 Y77.300 E2.28522 F900.000
G1 X72.700 Y52.700 E3.57045
G1 X97.300 Y52.700 E4.85567
G1 X97.300 Y77.240 E6.13776
G1 E5.13776 F1200.00000
G92 E0
G1 Z11.535 F1800.000
G1 X97.300 Y77.300 F1800.000
G1 E1.00000 F1200.00000
G1 X72.700 Y77.300 E2.28522 F900.000
G1 X72.700 Y52.700 E3.57045
G1 X97.300 Y52.700 E4.85567
G1 X97.300 Y77.240 E6.13776
G1 E5.13776 F1200.00000
G92 E0
G1 Z11.935 F1800.000
G1 X97.300 Y77.300 F1800.000
G1 E1.00000 F1200.00000
G1 X72.700 Y77.300 E2.28522 F900.000
G1 X72.700 Y52.700 E3.57045
G1 X97.300 Y52.700 E4.85567
G1 X97.300 Y77.240 E6.13776
G1 E5.13776 F1200.00000
G92 E0
G1 Z12.335 F1800.000
G1 X97.300 Y77.300 F1800.000
G1 E1.00000 F1200.00000
G1 X72.700 Y77.300 E2.28522 F900.000
G1 X72.700 Y52.700 E3.57045
G1 X97.300 Y52.700 E4.85567
G1 X97.300 Y77.240 E6.13776
G1 E5.13776 F1200.00000
G92 E0
G1 Z12.735 F1800.000
G1 X97.300 Y77.300 F1800.000
G1 E1.00000 F1200.00000
G1 X72.700 Y77.300 E2.28522 F900.000
G1 X72.700 Y52.700 E3.57045
G1 X97.300 Y52.700 E4.85567
G1 X97.300 Y77.240 E6.13776
G1 E5.13776 F1200.00000
G92 E0
G1 Z13.135 F1800.000
G1 X97.300 Y77.300 F1800.000
G1 E1.00000 F1200.00000
G1 X72.700 Y77.300 E2.28522 F900.000
G1 X72.700 Y52.700 E3.57045
G1 X97.300 Y52.700 E4.85567
G1 X97.300 Y77.240 E6.13776
G1 E5.13776 F1200.00000
G92 E0
G1 Z13.535 F1800.000
G1 X97.300 Y77.300 F1800.000
G1 E1.00000 F1200.00000
G1 X72.700 Y77.300 E2.28522 F900.000
G1 X72.700 Y52.700 E3.57045
G1 X97.300 Y52.700 E4.85567
G1 X97.300 Y77.240 E6.13776
G1 E5.13776 F1200.00000
G92 E0
G1 Z13.935 F1800.000
G1 X97.300 Y77.300 F1800.000
G1 E1.00000 F1200.00000
G1 X72.700 Y77.300 E2.28522 F900.000
G1 X72.700 Y52.700 E3.57045
G1 X97.300 Y52.700 E4.85567
G1 X97.300 Y77.240 E6.13776
G1 E5.13776 F1200.00000
G92 E0
G1 Z14.335 F1800.000
G1 X97.300 Y77.300 F1800.000
G1 E1.00000 F1200.00000
G1 X72.700 Y77.300 E2.28522 F900.000
G1 X72.700 Y52.700 E3.57045
G1 X97.300 Y52.700 E4.85567
G1 X97.300 Y77.240 E6.13776
G1 E5.13776 F1200.00000
G92 E0
G1 Z14.735 F1800.000
G1 X97.300 Y77.300 F1800.000
G1 E1.00000 F1200.00000
G1 X72.700 Y77.300 E2.28522 F900.000
G1 X72.700 Y52.700 E3.57045
G1 X97.300 Y52.700 E4.85567
G1 X97.300 Y77.240 E6.13776
G1 E5.13776 F1200.00000
G92 E0
G1 Z15.135 F1800.000
G1 X97.300 Y77.300 F1800.000
G1 E1.00000 F1200.00000
G1 X72.700 Y77.300 E2.28522 F900.000
G1 X72.700 Y52.700 E3.57045
G1 X97.300 Y52.700 E4.85567
G1 X97.300 Y77.240 E6.13776
G1 E5.13776 F1200.00000
G92 E0
G1 Z15.535 F1800.000
G1 X97.300 Y77.300 F1800.000
G1 E1.00000 F1200.00000
G1 X72.700 Y77.300 E2.28522 F900.000
G1 X72.700 Y52.700 E3.57045
G1 X97.300 Y52.700 E4.85567
G1 X97.300 Y77.240 E6.13776
G1 E5.13776 F1200.00000
G92 E0
G1 Z15.935 F1800.000
G1 X97.300 Y77.300 F1800.000
G1 E1.00000 F1200.00000
G1 X72.700 Y77.300 E2.28522 F900.000
G1 X72.700 Y52.700 E3.57045
G1 X97.300 Y52.700 E4.85567
G1 X97.300 Y77.240 E6.13776
G1 E5.13776 F1200.00000
G92 E0
G1 Z16.335 F1800.000
G1 X97.300 Y77.300 F1800.000
G1 E1.00000 F1200.00000
G1 X72.700 Y77.300 E2.28522 F900.000
G1 X72.700 Y52.700 E3.57045
G1 X97.300 Y52.700 E4.85567
G1 X97.300 Y77.240 E6.13776
G1 E5.13776 F1200.00000
G92 E0
G1 Z16.735 F1800.000
G1 X97.300 Y77.300 F1800.000
G1 E1.00000 F1200.00000
G1 X72.700 Y77.300 E2.28522 F900.000
G1 X72.700 Y52.700 E3.57045
G1 X97.300 Y52.700 E4.85567
G1 X97.300 Y77.240 E6.13776
G1 E5.13776 F1200.00000
G92 E0
G1 Z17.135 F1800.000
G1 X97.300 Y77.300 F1800.000
G1 E1.00000 F1200.00000
G1 X72.700 Y77.300 E2.28522 F900.000
G1 X72.700 Y52.700 E3.57045
G1 X97.300 Y52.700 E4.85567
G1 X97.300 Y77.240 E6.13776
G1 E5.13776 F1200.00000
G92 E0
G1 Z17.535 F1800.000
G1 X97.300 Y77.300 F1800.000
G1 E1.00000 F1200.00000
G1 X72.700 Y77.300 E2.28522 F900.000
G1 X72.700 Y52.700 E3.57045
G1 X97.300 Y52.700 E4.85567
G1 X97.300 Y77.240 E6.13776
G1 E5.13776 F1200.00000
G92 E0
G1 Z17.935 F1800.000
G1 X97.300 Y77.300 F1800.000
G1 E1.00000 F1200.00000
G1 X72.700 Y77.300 E2.28522 F900.000
G1 X72.700 Y52.700 E3.57045
G1 X97.300 Y52.700 E4.85567
G1 X97.300 Y77.240 E6.13776
G1 E5.13776 F1200.00000
G92 E0
G1 Z18.335 F1800.000
G1 X97.300 Y77.300 F1800.000
G1 E1.00000 F1200.00000
G1 X72.700 Y77.300 E2.28522 F900.000
G1 X72.700 Y52.700 E3.57045
G1 X97.300 Y52.700 E4.85567
G1 X97.300 Y77.240 E6.13776
G1 E5.13776 F1200.00000
G92 E0
G1 Z18.735 F1800.000
G1 X97.300 Y77.300 F1800.000
G1 E1.00000 F1200.00000
G1 X72.700 Y77.300 E2.28522 F900.000
G1 X72.700 Y52.700 E3.57045
G1 X97.300 Y52.700 E4.85567
G1 X97.300 Y77.240 E6.13776
G1 E5.13776 F1200.00000
G92 E0
G1 Z19.135 F1800.000
G1 X97.300 Y77.300 F1800.000
G1 E1.00000 F1200.00000
G1 X72.700 Y77.300 E2.28522 F900.000
G1 X72.700 Y52.700 E3.57045
G1 X97.300 Y52.700 E4.85567
G1 X97.300 Y77.240 E6.13776
G1 E5.13776 F1200.00000
G92 E0
G1 Z19.535 F1800.000
G1 X97.300 Y77.300 F1800.000
G1 E1.00000 F1200.00000
G1 X72.700 Y77.300 E2.28522 F900.000
G1 X72.700 Y52.700 E3.57045
G1 X97.300 Y52.700 E4.85567
G1 X97.300 Y77.240 E6.13776
G1 E5.13776 F1200.00000
G92 E0
G1 Z19.935 F1800.000
G1 X97.300 Y77.300 F1800.000
G1 E1.00000 F1200.00000
G1 X72.700 Y77.300 E2.28522 F900.000
G1 X72.700 Y52.700 E3.57045
G1 X97.300 Y52.700 E4.85567
G1 X97.300 Y77.240 E6.13776
G1 E5.13776 F1200.00000
G92 E0
G1 Z20.335 F1800.000
G1 X97.300 Y77.300 F1800.000
G1 E1.00000 F1200.00000
G1 X72.700 Y77.300 E2.28522 F900.000
G1 X72.700 Y52.700 E3.57045
G1 X97.300 Y52.700 E4.85567
G1 X97.300 Y77.240 E6.13776
G1 E5.13776 F1200.00000
G92 E0
G1 Z20.735 F1800.000
G1 X97.300 Y77.300 F1800.000
G1 E1.00000 F1200.00000
G1 X72.700 Y77.300 E2.28522 F900.000
G1 X72.700 Y52.700 E3.57045
G1 X97.300 Y52.700 E4.85567
G1 X97.300 Y77.240 E6.13776
G1 E5.13776 F1200.00000
G92 E0
G1 Z21.135 F1800.000
G1 X97.300 Y77.300 F1800.000
G1 E1.00000 F1200.00000
G1 X72.700 Y77.300 E2.28522 F900.000
G1 X72.700 Y52.700 E3.57045
G1 X97.300 Y52.700 E4.85567
G1 X97.300 Y77.240 E6.13776
G1 E5.13776 F1200.00000
G92 E0
G1 Z21.535 F1800.000
G1 X97.300 Y77.300 F1800.000
G1 E1.00000 F1200.00000
G1 X72.700 Y77.300 E2.28522 F900.000
G1 X72.700 Y52.700 E3.57045
G1 X97.300 Y52.700 E4.85567
G1 X97.300 Y77.240 E6.13776
G1 E5.13776 F1200.00000
G92 E0
G1 Z21.935 F1800.000
G1 X97.300 Y77.300 F1800.000
G1 E1.00000 F1200.00000
G1 X72.700 Y77.300 E2.28522 F900.000
G1 X72.700 Y52.700 E3.57045
G1 X97.300 Y52.700 E4.85567
G1 X97.300 Y77.240 E6.13776
G1 E5.13776 F1200.00000
G92 E0
G1 Z22.335 F1800.000
G1 X97.300 Y77.300 F1800.000
G1 E1.00000 F1200.00000
G1 X72.700 Y77.300 E2.28522 F900.000
G1 X72.700 Y52.700 E3.57045
G1 X97.300 Y52.700 E4.85567
G1 X97.300 Y77.240 E6.13776
G1 E5.13776 F1200.00000
G92 E0
G1 Z22.735 F1800.000
G1 X97.300 Y77.300 F1800.000
G1 E1.00000 F1200.00000
G1 X72.700 Y77.300 E2.28522 F900.000
G1 X72.700 Y52.700 E3.57045
G1 X97.300 Y52.700 E4.85567
G1 X97.300 Y77.240 E6.13776
G1 E5.13776 F1200.00000
G92 E0
G1 Z23.135 F1800.000
G1 X97.300 Y77.300 F1800.000
G1 E1.00000 F1200.00000
G1 X72.700 Y77.300 E2.28522 F900.000
G1 X72.700 Y52.700 E3.57045
G1 X97.300 Y52.700 E4.85567
G1 X97.300 Y77.240 E6.13776
G1 E5.13776 F1200.00000
G92 E0
G1 Z23.535 F1800.000
G1 X97.300 Y77.300 F1800.000
G1 E1.00000 F1200.00000
