; generated by Slic3r 1.2.9 on 2018-10-30 at 08:44:57

; external perimeters extrusion width = 0.25mm
; perimeters extrusion width = 0.20mm
; infill extrusion width = 0.24mm
; solid infill extrusion width = 0.20mm
; top infill extrusion width = 0.22mm
; support material extrusion width = 0.24mm

M107
M190 S110
M104 S239
M109 S239
G28 ; home all axes
G21 ; set units to millimeters
G90 ; use absolute coordinates
M82 ; use absolute distances for extrusion
G92 E0
G1 E-1.00000 F1200.00000
G92 E0
G1 Z0.150 F1800.000
G1 X64.810 Y45.855 F1800.000
G1 E1.00000 F1200.00000
G1 X66.597 Y44.136 E1.06350 F1500.000
G1 X68.836 Y43.070 E1.12701
G1 X71.000 Y42.761 E1.18297
G1 X99.000 Y42.761 E1.89991
G1 X101.448 Y43.158 E1.96342
G1 X103.645 Y44.310 E2.02692
G1 X105.364 Y46.097 E2.09043
G1 X106.430 Y48.336 E2.15393
G1 X106.739 Y50.500 E2.20989
G1 X106.739 Y79.500 E2.95244
G1 X106.342 Y81.948 E3.01594
G1 X105.190 Y84.145 E3.07945
G1 X103.403 Y85.864 E3.14295
G1 X101.164 Y86.930 E3.20646
G1 X99.000 Y87.239 E3.26242
G1 X71.000 Y87.239 E3.97936
G1 X68.552 Y86.842 E4.04286
G1 X66.355 Y85.690 E4.10637
G1 X64.636 Y83.903 E4.16987
G1 X63.570 Y81.664 E4.23338
G1 X63.261 Y79.500 E4.28934
G1 X63.261 Y50.500 E5.03189
G1 X63.658 Y48.052 E5.09539
G1 X64.782 Y45.908 E5.15736
G1 X65.054 Y45.940 F1800.000
G1 X66.835 Y44.272 E5.21984 F1500.000
G1 X69.057 Y43.264 E5.28232
G1 X71.000 Y43.007 E5.33250
G1 X99.000 Y43.007 E6.04944
G1 X101.408 Y43.405 E6.11192
G1 X103.560 Y44.554 E6.17440
G1 X105.228 Y46.335 E6.23688
G1 X106.236 Y48.557 E6.29936
G1 X106.493 Y50.500 E6.34954
G1 X106.493 Y79.500 E7.09208
G1 X106.095 Y81.908 E7.15456
G1 X104.946 Y84.060 E7.21704
G1 X103.165 Y85.728 E7.27952
G1 X100.943 Y86.736 E7.34200
G1 X99.000 Y86.993 E7.39218
G1 X71.000 Y86.993 E8.10912
G1 X68.592 Y86.595 E8.17160
G1 X66.440 Y85.446 E8.23408
G1 X64.772 Y83.665 E8.29656
G1 X63.764 Y81.443 E8.35904
G1 X63.507 Y79.500 E8.40922
G1 X63.507 Y50.500 E9.15177
G1 X63.905 Y48.092 E9.21424
G1 X65.026 Y45.993 E9.27519
G1 X65.299 Y46.027 F1800.000
G1 X67.072 Y44.410 E9.33662 F1500.000
G1 X69.276 Y43.462 E9.39806
G1 X71.000 Y43.254 E9.44252
G1 X99.000 Y43.254 E10.15946
G1 X101.366 Y43.651 E10.22090
G1 X103.473 Y44.799 E10.28234
G1 X105.090 Y46.572 E10.34377
G1 X106.038 Y48.776 E10.40521
G1 X106.246 Y50.500 E10.44967
G1 X106.246 Y79.500 E11.19222
G1 X105.849 Y81.866 E11.25365
G1 X104.701 Y83.973 E11.31509
G1 X102.928 Y85.590 E11.37653
G1 X100.724 Y86.538 E11.43796
G1 X99.000 Y86.746 E11.48242
G1 X71.000 Y86.746 E12.19937
G1 X68.634 Y86.349 E12.26080
G1 X66.527 Y85.201 E12.32224
G1 X64.910 Y83.428 E12.38367
G1 X63.962 Y81.224 E12.44511
G1 X63.754 Y79.500 E12.48957
G1 X63.754 Y50.500 E13.23212
G1 X64.151 Y48.134 E13.29356
G1 X65.270 Y46.080 E13.35346
G1 E12.35346 F1200.00000
G92 E0
G1 X69.399 Y49.837 F1800.000
G1 E1.00000 F1200.00000
G1 X70.337 Y48.899 E1.03397 F1500.000
G1 X99.663 Y48.899 E1.78487
G1 X100.601 Y49.837 E1.81884
G1 X100.601 Y80.163 E2.59535
G1 X99.663 Y81.101 E2.62932
G1 X70.337 Y81.101 E3.38023
G1 X69.399 Y80.163 E3.41419
G1 X69.399 Y49.897 E4.18917
G1 X69.645 Y49.939 F1800.000
G1 X70.439 Y49.145 E4.21791 F1500.000
G1 X99.561 Y49.145 E4.96359
G1 X100.355 Y49.939 E4.99233
G1 X100.355 Y80.061 E5.76362
G1 X99.561 Y80.855 E5.79236
G1 X70.439 Y80.855 E6.53804
G1 X69.645 Y80.061 E6.56678
G1 X69.645 Y49.999 E7.33653
G1 X69.891 Y50.041 F1800.000
G1 X70.541 Y49.391 E7.36005 F1500.000
G1 X99.459 Y49.391 E8.10050
G1 X100.109 Y50.041 E8.12402
G1 X100.109 Y79.959 E8.89008
G1 X99.459 Y80.609 E8.91360
G1 X70.541 Y80.609 E9.65405
G1 X69.891 Y79.959 E9.67757
G1 X69.891 Y50.101 E10.44209
G1 X70.138 Y50.143 F1800.000
G1 X70.643 Y49.638 E10.46038 F1500.000
G1 X99.357 Y49.638 E11.19561
G1 X99.862 Y50.143 E11.21390
G1 X99.862 Y79.857 E11.97474
G1 X99.357 Y80.362 E11.99303
G1 X70.643 Y80.362 E12.72826
G1 X70.138 Y79.857 E12.74655
G1 X70.138 Y50.203 E13.50585
G1 X70.384 Y50.245 F1800.000
G1 X70.745 Y49.884 E13.51891 F1500.000
G1 X99.255 Y49.884 E14.24892
G1 X99.616 Y50.245 E14.26198
G1 X99.616 Y79.755 E15.01759
G1 X99.255 Y80.116 E15.03066
G1 X70.745 Y80.116 E15.76066
G1 X70.384 Y79.755 E15.77373
G1 X70.384 Y50.305 E16.52780
G1 X70.630 Y50.347 F1800.000
G1 X70.847 Y50.130 E16.53564 F1500.000
G1 X99.153 Y50.130 E17.26042
G1 X99.370 Y50.347 E17.26826
G1 X99.370 Y79.653 E18.01864
G1 X99.153 Y79.870 E18.02648
G1 X70.847 Y79.870 E18.75126
G1 X70.630 Y79.653 E18.75910
G1 X70.630 Y50.407 E19.50795
G1 X70.877 Y50.449 F1800.000
G1 X70.949 Y50.377 E19.51056 F1500.000
G1 X99.051 Y50.377 E20.23011
G1 X99.123 Y50.449 E20.23273
G1 X99.123 Y79.551 E20.97789
G1 X99.051 Y79.623 E20.98050
G1 X70.949 Y79.623 E21.70005
G1 X70.877 Y79.551 E21.70267
G1 X70.877 Y50.509 E22.44629
G1 E21.44629 F1200.00000
G92 E0
G1 X71.135 Y66.498 F1800.000
G1 E1.00000 F1200.00000
G1 X71.135 Y63.502 E1.07673 F450.000
G1 E0.07673 F1200.00000
G92 E0
G1 X77.730 Y62.846 F1800.000
G1 X79.425 Y54.716 F1800.000
G1 X91.805 Y56.950 F1800.000
G1 X92.213 Y58.318 F1800.000
G1 X92.483 Y59.064 F1800.000
G1 X92.679 Y59.517 F1800.000
G1 X91.513 Y61.536 F1800.000
G1 X92.270 Y62.846 F1800.000
G1 X98.865 Y63.502 F1800.000
G1 E1.00000 F1200.00000
G1 X98.865 Y66.498 E1.07673 F450.000
G1 E0.07673 F1200.00000
G92 E0
G1 X98.000 Y68.152 F1800.000
G1 X98.000 Y68.152 F1800.000
G1 X96.667 Y70.462 F1800.000
G1 X96.000 Y69.307 F1800.000
G1 X93.120 Y66.663 F1800.000
G1 E1.00000 F1200.00000
G1 X96.000 Y68.326 E1.08515 F450.000
G1 X98.850 Y66.680 E1.16941
G1 X98.850 Y79.350 E1.49383
G1 X71.150 Y79.350 E2.20309
G1 X71.150 Y66.680 E2.52750
G1 X74.000 Y68.326 E2.61176
G1 X76.880 Y66.663 E2.69691
G1 X76.880 Y63.337 E2.78206
G1 X74.000 Y61.674 E2.86721
G1 X71.150 Y63.320 E2.95148
G1 X71.150 Y50.650 E3.27589
G1 X98.850 Y50.650 E3.98515
G1 X98.850 Y63.320 E4.30956
G1 X96.000 Y61.674 E4.39383
G1 X93.120 Y63.337 E4.47898
G1 X93.120 Y66.603 E4.56259
G1 X92.983 Y67.039 F1800.000
G1 X92.874 Y66.805 F1800.000
G1 X96.000 Y68.610 E4.65502 F600.000
G1 X98.604 Y67.107 E4.73200
G1 X98.604 Y79.104 E5.03918
G1 X71.396 Y79.104 E5.73583
G1 X71.396 Y67.107 E6.04301
G1 X74.000 Y68.610 E6.11999
G1 X77.126 Y66.805 E6.21242
G1 X77.126 Y63.195 E6.30486
G1 X74.000 Y61.390 E6.39729
G1 X71.396 Y62.893 E6.47427
G1 X71.396 Y50.896 E6.78145
G1 X98.604 Y50.896 E7.47809
G1 X98.604 Y62.893 E7.78527
G1 X96.000 Y61.390 E7.86225
G1 X92.874 Y63.195 E7.95469
G1 X92.874 Y66.745 E8.04559
G1 X92.627 Y66.947 F1800.000
G1 X96.000 Y68.894 E8.14530 F600.000
G1 X98.357 Y67.533 E8.21500
G1 X98.357 Y78.857 E8.50495
G1 X71.643 Y78.857 E9.18898
G1 X71.643 Y67.533 E9.47892
G1 X74.000 Y68.894 E9.54862
G1 X77.373 Y66.947 E9.64834
G1 X77.373 Y63.053 E9.74806
G1 X74.000 Y61.106 E9.84777
G1 X71.643 Y62.467 E9.91747
G1 X71.643 Y51.143 E10.20742
G1 X98.357 Y51.143 E10.89144
G1 X98.357 Y62.467 E11.18139
G1 X96.000 Y61.106 E11.25109
G1 X92.627 Y63.053 E11.35080
G1 X92.627 Y66.887 E11.44899
G1 E10.44899 F1200.00000
G92 E0
G1 X92.270 Y67.154 F1800.000
G1 X91.304 Y74.124 F1800.000
G1 X79.094 Y74.790 F1800.000
G1 X78.482 Y73.714 F1800.000
G1 X78.250 Y73.192 F1800.000
G1 X78.153 Y72.933 F1800.000
G1 X78.103 Y72.789 F1800.000
G1 X76.248 Y73.458 F1800.000
G1 X75.419 Y73.680 F1800.000
G1 E1.00000 F1200.00000
G1 X75.520 Y73.960 E1.00762 F300.000
G1 X75.568 Y74.345 E1.01757
G1 X75.540 Y74.642 E1.02518
G1 X75.458 Y74.925 E1.03274
G1 X75.324 Y75.188 E1.04030
G1 X75.143 Y75.421 E1.04786
G1 X74.922 Y75.616 E1.05541
G1 X74.666 Y75.768 E1.06303
G1 X74.296 Y75.888 E1.07298
G1 X74.000 Y75.916 E1.08060
G1 X73.704 Y75.888 E1.08822
G1 X73.334 Y75.768 E1.09816
G1 X73.078 Y75.616 E1.10578
G1 X72.857 Y75.421 E1.11334
G1 X72.676 Y75.188 E1.12089
G1 X72.542 Y74.925 E1.12845
G1 X72.460 Y74.642 E1.13601
G1 X72.432 Y74.348 E1.14357
G1 X72.460 Y74.054 E1.15112
G1 X72.542 Y73.770 E1.15868
G1 X72.676 Y73.507 E1.16624
G1 X72.857 Y73.274 E1.17380
G1 X73.078 Y73.079 E1.18135
G1 X73.332 Y72.929 E1.18891
G1 X73.612 Y72.828 E1.19653
G1 X73.992 Y72.779 E1.20633
G1 X74.294 Y72.807 E1.21409
G1 X74.577 Y72.890 E1.22165
G1 X74.840 Y73.024 E1.22921
G1 X75.073 Y73.205 E1.23677
G1 X75.269 Y73.426 E1.24432
G1 X75.388 Y73.628 E1.25034
G1 X75.714 Y73.714 F1800.000
G1 X75.643 Y73.575 F1800.000
G1 X75.761 Y73.902 E1.25926 F300.000
G1 X75.816 Y74.341 E1.27060
G1 X75.783 Y74.688 E1.27951
G1 X75.688 Y75.016 E1.28826
G1 X75.533 Y75.321 E1.29701
G1 X75.324 Y75.591 E1.30576
G1 X75.067 Y75.816 E1.31450
G1 X74.768 Y75.994 E1.32342
G1 X74.346 Y76.131 E1.33476
G1 X74.000 Y76.163 E1.34367
G1 X73.654 Y76.131 E1.35258
G1 X73.232 Y75.994 E1.36392
G1 X72.933 Y75.816 E1.37283
G1 X72.676 Y75.591 E1.38158
G1 X72.467 Y75.321 E1.39033
G1 X72.312 Y75.016 E1.39908
G1 X72.217 Y74.688 E1.40783
G1 X72.184 Y74.348 E1.41658
G1 X72.217 Y74.008 E1.42533
G1 X72.312 Y73.679 E1.43408
G1 X72.467 Y73.375 E1.44283
G1 X72.676 Y73.105 E1.45158
G1 X72.933 Y72.879 E1.46033
G1 X73.227 Y72.705 E1.46908
G1 X73.554 Y72.587 E1.47798
G1 X73.987 Y72.532 E1.48917
G1 X74.340 Y72.564 E1.49822
G1 X74.668 Y72.660 E1.50699
G1 X74.973 Y72.815 E1.51574
G1 X75.243 Y73.024 E1.52449
G1 X75.469 Y73.280 E1.53324
G1 X75.612 Y73.523 E1.54045
G1 X75.867 Y73.469 F1800.000
G1 X76.002 Y73.844 E1.55066 F300.000
G1 X76.064 Y74.338 E1.56339
G1 X76.027 Y74.734 E1.57359
G1 X75.918 Y75.107 E1.58353
G1 X75.742 Y75.453 E1.59348
G1 X75.504 Y75.760 E1.60342
G1 X75.213 Y76.017 E1.61336
G1 X74.870 Y76.220 E1.62357
G1 X74.397 Y76.373 E1.63630
G1 X74.000 Y76.411 E1.64650
G1 X73.603 Y76.373 E1.65670
G1 X73.130 Y76.220 E1.66944
G1 X72.787 Y76.017 E1.67964
G1 X72.496 Y75.760 E1.68958
G1 X72.258 Y75.453 E1.69952
G1 X72.082 Y75.107 E1.70947
G1 X71.973 Y74.734 E1.71941
G1 X71.937 Y74.348 E1.72935
G1 X71.973 Y73.961 E1.73929
G1 X72.082 Y73.588 E1.74924
G1 X72.258 Y73.242 E1.75918
G1 X72.496 Y72.935 E1.76912
G1 X72.787 Y72.679 E1.77907
G1 X73.122 Y72.481 E1.78901
G1 X73.496 Y72.346 E1.79920
G1 X73.983 Y72.284 E1.81177
G1 X74.386 Y72.321 E1.82212
G1 X74.759 Y72.429 E1.83209
G1 X75.105 Y72.606 E1.84203
G1 X75.412 Y72.844 E1.85197
G1 X75.669 Y73.135 E1.86191
G1 X75.836 Y73.418 E1.87032
G1 E0.87032 F1200.00000
G92 E0
G1 X74.303 Y71.949 F1800.000
G1 X75.773 Y70.443 F1800.000
G1 X77.308 Y70.481 F1800.000
G1 X78.865 Y67.154 F1800.000
G1 X76.927 Y59.548 F1800.000
G1 X75.313 Y59.523 F1800.000
G1 X74.721 Y59.444 F1800.000
G1 X74.431 Y59.404 F1800.000
G1 X74.277 Y59.391 F1800.000
G1 X74.152 Y58.066 F1800.000
G1 X74.294 Y57.193 F1800.000
G1 E1.00000 F1200.00000
G1 X74.000 Y57.220 E1.00756 F300.000
G1 X73.706 Y57.193 E1.01511
G1 X73.420 Y57.110 E1.02273
G1 X73.080 Y56.923 E1.03268
G1 X72.857 Y56.726 E1.04030
G1 X72.676 Y56.493 E1.04785
G1 X72.542 Y56.230 E1.05541
G1 X72.460 Y55.946 E1.06297
G1 X72.432 Y55.652 E1.07053
G1 X72.460 Y55.358 E1.07808
G1 X72.542 Y55.075 E1.08564
G1 X72.676 Y54.812 E1.09320
G1 X72.857 Y54.579 E1.10076
G1 X73.078 Y54.384 E1.10831
G1 X73.332 Y54.233 E1.11587
G1 X73.612 Y54.133 E1.12349
G1 X73.992 Y54.084 E1.13329
G1 X74.294 Y54.112 E1.14105
G1 X74.577 Y54.194 E1.14861
G1 X74.840 Y54.328 E1.15617
G1 X75.073 Y54.509 E1.16373
G1 X75.269 Y54.731 E1.17128
G1 X75.419 Y54.985 E1.17885
G1 X75.521 Y55.270 E1.18661
G1 X75.568 Y55.650 E1.19641
G1 X75.540 Y55.946 E1.20402
G1 X75.458 Y56.230 E1.21158
G1 X75.324 Y56.493 E1.21914
G1 X75.143 Y56.726 E1.22670
G1 X74.920 Y56.923 E1.23431
G1 X74.580 Y57.110 E1.24426
G1 X74.351 Y57.176 E1.25034
G1 X74.188 Y57.468 F1800.000
G1 X74.340 Y57.436 F1800.000
G1 X74.000 Y57.468 E1.25909 F300.000
G1 X73.660 Y57.436 E1.26784
G1 X73.326 Y57.339 E1.27675
G1 X72.938 Y57.125 E1.28809
G1 X72.676 Y56.895 E1.29700
G1 X72.467 Y56.625 E1.30575
G1 X72.312 Y56.321 E1.31450
G1 X72.217 Y55.993 E1.32325
G1 X72.184 Y55.652 E1.33200
G1 X72.217 Y55.312 E1.34075
G1 X72.312 Y54.984 E1.34950
G1 X72.467 Y54.679 E1.35826
G1 X72.676 Y54.409 E1.36700
G1 X72.933 Y54.183 E1.37575
G1 X73.227 Y54.010 E1.38451
G1 X73.554 Y53.892 E1.39341
G1 X73.987 Y53.836 E1.40459
G1 X74.340 Y53.869 E1.41365
G1 X74.668 Y53.964 E1.42241
G1 X74.973 Y54.119 E1.43116
G1 X75.243 Y54.329 E1.43991
G1 X75.469 Y54.585 E1.44866
G1 X75.643 Y54.880 E1.45743
G1 X75.762 Y55.213 E1.46649
G1 X75.816 Y55.646 E1.47767
G1 X75.783 Y55.993 E1.48657
G1 X75.688 Y56.321 E1.49532
G1 X75.533 Y56.625 E1.50407
G1 X75.324 Y56.895 E1.51282
G1 X75.062 Y57.125 E1.52174
G1 X74.674 Y57.339 E1.53308
G1 X74.398 Y57.419 E1.54045
G1 X74.387 Y57.679 F1800.000
G1 X74.000 Y57.715 E1.55039 F300.000
G1 X73.613 Y57.679 E1.56033
G1 X73.231 Y57.568 E1.57054
G1 X72.795 Y57.328 E1.58327
G1 X72.496 Y57.065 E1.59347
G1 X72.258 Y56.758 E1.60341
G1 X72.082 Y56.412 E1.61336
G1 X71.973 Y56.039 E1.62330
G1 X71.937 Y55.652 E1.63324
G1 X71.973 Y55.266 E1.64318
G1 X72.082 Y54.893 E1.65313
G1 X72.258 Y54.547 E1.66307
G1 X72.496 Y54.240 E1.67301
G1 X72.787 Y53.983 E1.68296
G1 X73.122 Y53.786 E1.69290
G1 X73.496 Y53.651 E1.70309
G1 X73.983 Y53.589 E1.71566
G1 X74.386 Y53.626 E1.72602
G1 X74.759 Y53.734 E1.73598
G1 X75.105 Y53.910 E1.74592
G1 X75.412 Y54.148 E1.75586
G1 X75.669 Y54.440 E1.76581
G1 X75.867 Y54.775 E1.77577
G1 X76.003 Y55.156 E1.78613
G1 X76.064 Y55.643 E1.79870
G1 X76.027 Y56.039 E1.80889
G1 X75.918 Y56.412 E1.81883
G1 X75.742 Y56.758 E1.82877
G1 X75.504 Y57.065 E1.83872
G1 X75.205 Y57.328 E1.84892
G1 X74.769 Y57.568 E1.86165
G1 X74.444 Y57.662 E1.87032
G1 E0.87032 F1200.00000
G92 E0
G1 X80.850 Y58.600 F1800.000
G1 E1.00000 F1200.00000
G1 X89.150 Y58.600 E1.21252 F450.000
G1 X89.150 Y71.400 E1.54027
G1 X80.850 Y71.400 E1.75279
G1 X80.850 Y58.660 E2.07900
G1 X80.850 Y58.200 F1800.000
G1 X80.604 Y58.354 F1800.000
G1 X89.396 Y58.354 E2.30413 F600.000
G1 X89.396 Y71.646 E2.64450
G1 X80.604 Y71.646 E2.86963
G1 X80.604 Y58.414 E3.20846
G1 X80.357 Y58.107 F1800.000
G1 X89.643 Y58.107 E3.44621 F600.000
G1 X89.643 Y71.893 E3.79919
G1 X80.357 Y71.893 E4.03694
G1 X80.357 Y58.167 E4.38838
G1 E3.38838 F1200.00000
G92 E0
G1 X94.460 Y55.946 F1800.000
G1 E1.00000 F1200.00000
G1 X94.432 Y55.652 E1.00756 F300.000
G1 X94.460 Y55.358 E1.01512
G1 X94.542 Y55.075 E1.02267
G1 X94.676 Y54.812 E1.03023
G1 X94.857 Y54.579 E1.03779
G1 X95.078 Y54.384 E1.04534
G1 X95.332 Y54.233 E1.05290
G1 X95.612 Y54.133 E1.06052
G1 X95.992 Y54.084 E1.07032
G1 X96.294 Y54.112 E1.07808
G1 X96.577 Y54.194 E1.08564
G1 X96.840 Y54.328 E1.09320
G1 X97.073 Y54.509 E1.10076
G1 X97.270 Y54.732 E1.10838
G1 X97.457 Y55.073 E1.11832
G1 X97.540 Y55.358 E1.12594
G1 X97.568 Y55.652 E1.13350
G1 X97.540 Y55.946 E1.14105
G1 X97.458 Y56.230 E1.14861
G1 X97.324 Y56.493 E1.15617
G1 X97.143 Y56.726 E1.16373
G1 X96.920 Y56.923 E1.17135
G1 X96.580 Y57.110 E1.18129
G1 X96.294 Y57.193 E1.18891
G1 X96.000 Y57.220 E1.19647
G1 X95.706 Y57.193 E1.20402
G1 X95.420 Y57.110 E1.21164
G1 X95.080 Y56.923 E1.22159
G1 X94.857 Y56.726 E1.22921
G1 X94.676 Y56.493 E1.23677
G1 X94.542 Y56.230 E1.24432
G1 X94.476 Y56.004 E1.25034
G1 X94.184 Y55.840 F1800.000
G1 X94.217 Y55.993 F1800.000
G1 X94.184 Y55.652 E1.25909 F300.000
G1 X94.217 Y55.312 E1.26784
G1 X94.312 Y54.984 E1.27659
G1 X94.467 Y54.679 E1.28534
G1 X94.676 Y54.409 E1.29409
G1 X94.933 Y54.183 E1.30284
G1 X95.227 Y54.010 E1.31160
G1 X95.554 Y53.892 E1.32050
G1 X95.987 Y53.836 E1.33168
G1 X96.340 Y53.869 E1.34074
G1 X96.668 Y53.964 E1.34950
G1 X96.973 Y54.119 E1.35825
G1 X97.243 Y54.329 E1.36700
G1 X97.473 Y54.590 E1.37591
G1 X97.686 Y54.978 E1.38726
G1 X97.783 Y55.312 E1.39617
G1 X97.816 Y55.652 E1.40492
G1 X97.783 Y55.993 E1.41366
G1 X97.688 Y56.321 E1.42242
G1 X97.533 Y56.625 E1.43117
G1 X97.324 Y56.895 E1.43992
G1 X97.062 Y57.125 E1.44883
G1 X96.674 Y57.339 E1.46017
G1 X96.340 Y57.436 E1.46908
G1 X96.000 Y57.468 E1.47783
G1 X95.660 Y57.436 E1.48658
G1 X95.326 Y57.339 E1.49549
G1 X94.938 Y57.125 E1.50683
G1 X94.676 Y56.895 E1.51574
G1 X94.467 Y56.625 E1.52449
G1 X94.312 Y56.321 E1.53324
G1 X94.233 Y56.050 E1.54045
G1 X93.973 Y56.039 F1800.000
G1 X93.937 Y55.652 E1.55039 F300.000
G1 X93.973 Y55.266 E1.56034
G1 X94.082 Y54.893 E1.57028
G1 X94.258 Y54.547 E1.58022
G1 X94.496 Y54.240 E1.59016
G1 X94.787 Y53.983 E1.60011
G1 X95.122 Y53.786 E1.61005
G1 X95.496 Y53.651 E1.62024
G1 X95.983 Y53.589 E1.63281
G1 X96.386 Y53.626 E1.64317
G1 X96.759 Y53.734 E1.65313
G1 X97.105 Y53.910 E1.66307
G1 X97.412 Y54.148 E1.67301
