; generated by Slic3r 1.2.9 on 2018-10-31 at 17:03:56

; external perimeters extrusion width = 0.40mm
; perimeters extrusion width = 0.40mm
; infill extrusion width = 0.32mm
; solid infill extrusion width = 0.32mm
; top infill extrusion width = 0.36mm
; support material extrusion width = 0.30mm

M107
M190 S110
M104 S239
M109 S239
G28 ; home all axes
G21 ; set units to millimeters
G90 ; use absolute coordinates
M82 ; use absolute distances for extrusion
G92 E0
G1 E-1.00000 F1200.00000
G92 E0
G1 Z0.350 F1800.000
G1 X12.530 Y16.948 F1800.000
G1 E1.00000 F1200.00000
G1 X13.696 Y16.129 E1.06697 F1500.000
G1 X14.911 Y15.386 E1.13392
G1 X15.513 Y15.055 E1.16625
G1 X16.793 Y14.427 E1.23327
G1 X17.469 Y14.134 E1.26794
G1 X18.800 Y13.632 E1.33481
G1 X19.454 Y13.420 E1.36715
G1 X20.827 Y13.043 E1.43409
G1 X22.223 Y12.753 E1.50114
G1 X23.631 Y12.552 E1.56801
G1 X24.366 Y12.483 E1.60270
G1 X25.052 Y12.440 E1.63505
G1 X26.133 Y12.411 E1.68587
G1 X43.133 Y12.411 E2.48521
G1 X44.212 Y12.440 E2.53599
G1 X44.900 Y12.483 E2.56838
G1 X46.313 Y12.638 E2.63526
G1 X47.041 Y12.753 E2.66991
G1 X48.438 Y13.043 E2.73696
G1 X49.810 Y13.420 E2.80389
G1 X51.159 Y13.882 E2.87092
G1 X52.472 Y14.427 E2.93780
G1 X53.752 Y15.055 E3.00481
G1 X54.989 Y15.761 E3.07181
G1 X56.178 Y16.543 E3.13872
G1 X145.418 Y82.513 E8.35685
G1 X146.202 Y83.117 E8.40339
G1 X146.731 Y83.555 E8.43570
G1 X147.785 Y84.513 E8.50268
G1 X148.307 Y85.035 E8.53739
G1 X149.264 Y86.088 E8.60427
G1 X149.702 Y86.617 E8.63660
G1 X150.155 Y87.201 E8.67132
G1 X150.973 Y88.366 E8.73825
G1 X151.715 Y89.580 E8.80517
G1 X152.047 Y90.182 E8.83751
G1 X152.675 Y91.462 E8.90454
G1 X153.220 Y92.776 E8.97142
G1 X153.470 Y93.470 E9.00611
G1 X153.682 Y94.124 E9.03844
G1 X154.058 Y95.497 E9.10538
G1 X154.348 Y96.893 E9.17242
G1 X154.464 Y97.622 E9.20711
G1 X154.619 Y99.035 E9.27396
G1 X154.685 Y100.458 E9.34092
G1 X154.685 Y101.147 E9.37331
G1 X154.619 Y102.569 E9.44027
G1 X154.549 Y103.303 E9.47496
G1 X154.348 Y104.711 E9.54181
G1 X154.219 Y105.388 E9.57421
G1 X153.888 Y106.772 E9.64115
G1 X153.682 Y107.480 E9.67583
G1 X153.220 Y108.828 E9.74281
G1 X152.675 Y110.142 E9.80969
G1 X152.381 Y110.765 E9.84208
G1 X151.715 Y112.024 E9.90906
G1 X150.973 Y113.238 E9.97598
G1 X150.558 Y113.848 E10.01065
G1 X149.711 Y114.975 E10.07693
G1 X149.264 Y115.516 E10.10996
G1 X148.306 Y116.570 E10.17690
G1 X147.284 Y117.562 E10.24386
G1 X146.731 Y118.049 E10.27853
G1 X145.619 Y118.939 E10.34548
G1 X144.453 Y119.758 E10.41249
G1 X143.239 Y120.501 E10.47940
G1 X142.636 Y120.832 E10.51176
G1 X141.358 Y121.459 E10.57872
G1 X140.681 Y121.752 E10.61342
G1 X139.350 Y122.254 E10.68031
G1 X137.987 Y122.673 E10.74734
G1 X136.603 Y123.004 E10.81426
G1 X135.926 Y123.134 E10.84667
G1 X134.518 Y123.335 E10.91354
G1 X133.096 Y123.447 E10.98057
G1 X132.017 Y123.476 E11.03135
G1 X115.017 Y123.476 E11.83070
G1 X113.937 Y123.447 E11.88148
G1 X112.516 Y123.335 E11.94851
G1 X111.108 Y123.134 E12.01539
G1 X109.712 Y122.844 E12.08244
G1 X108.339 Y122.467 E12.14938
G1 X106.991 Y122.005 E12.21639
G1 X105.677 Y121.460 E12.28326
G1 X104.397 Y120.832 E12.35030
G1 X103.161 Y120.126 E12.41727
G1 X101.971 Y119.343 E12.48422
G1 X12.732 Y53.374 E17.70233
G1 X11.948 Y52.770 E17.74886
G1 X10.866 Y51.845 E17.81582
G1 X9.843 Y50.853 E17.88279
G1 X8.885 Y49.799 E17.94976
G1 X7.996 Y48.687 E18.01672
G1 X7.591 Y48.131 E18.04905
G1 X6.809 Y46.941 E18.11600
G1 X6.103 Y45.704 E18.18297
G1 X5.768 Y45.048 E18.21762
G1 X5.182 Y43.748 E18.28466
G1 X4.680 Y42.417 E18.35153
G1 X4.467 Y41.763 E18.38390
G1 X4.262 Y41.055 E18.41857
G1 X3.930 Y39.670 E18.48551
G1 X3.686 Y38.265 E18.55257
G1 X3.532 Y36.867 E18.61872
G1 X3.487 Y36.164 E18.65180
G1 X3.464 Y34.742 E18.71871
G1 X3.487 Y34.005 E18.75336
G1 X3.600 Y32.584 E18.82039
G1 X3.799 Y31.191 E18.88657
G1 X3.930 Y30.499 E18.91967
G1 X4.262 Y29.115 E18.98661
G1 X4.467 Y28.407 E19.02127
G1 X4.930 Y27.059 E19.08828
G1 X5.475 Y25.745 E19.15515
G1 X5.768 Y25.122 E19.18754
G1 X6.434 Y23.863 E19.25451
G1 X6.809 Y23.228 E19.28917
G1 X7.591 Y22.039 E19.35612
G1 X7.996 Y21.483 E19.38844
G1 X8.885 Y20.371 E19.45541
G1 X9.373 Y19.817 E19.49008
G1 X10.365 Y18.795 E19.55705
G1 X11.418 Y17.838 E19.62399
G1 X12.483 Y16.985 E19.68814
G1 X12.723 Y17.196 F1800.000
G1 X13.873 Y16.389 E19.75418 F1500.000
G1 X15.070 Y15.657 E19.82021
G1 X15.656 Y15.335 E19.85160
G1 X16.917 Y14.716 E19.91769
G1 X17.594 Y14.423 E19.95236
G1 X18.906 Y13.928 E20.01831
G1 X19.542 Y13.721 E20.04972
G1 X20.896 Y13.350 E20.11573
G1 X22.272 Y13.064 E20.18185
G1 X23.661 Y12.865 E20.24780
G1 X24.395 Y12.796 E20.28248
G1 X25.062 Y12.754 E20.31391
G1 X26.133 Y12.725 E20.36426
G1 X43.133 Y12.725 E21.16361
G1 X44.202 Y12.754 E21.21393
G1 X44.870 Y12.796 E21.24538
G1 X46.264 Y12.948 E21.31133
G1 X46.992 Y13.064 E21.34599
G1 X48.369 Y13.350 E21.41211
G1 X49.723 Y13.721 E21.47811
G1 X51.052 Y14.178 E21.54421
G1 X52.348 Y14.715 E21.61016
G1 X53.609 Y15.335 E21.67624
G1 X54.829 Y16.032 E21.74232
G1 X56.002 Y16.803 E21.80830
G1 X145.231 Y82.765 E27.02584
G1 X146.009 Y83.365 E27.07204
G1 X146.523 Y83.791 E27.10343
G1 X147.563 Y84.735 E27.16947
G1 X148.085 Y85.257 E27.20419
G1 X149.028 Y86.295 E27.27014
G1 X149.454 Y86.810 E27.30154
G1 X149.906 Y87.393 E27.33626
G1 X150.713 Y88.543 E27.40227
G1 X151.445 Y89.740 E27.46826
G1 X151.767 Y90.325 E27.49966
G1 X152.386 Y91.587 E27.56577
G1 X152.924 Y92.883 E27.63172
G1 X153.174 Y93.577 E27.66641
G1 X153.380 Y94.212 E27.69781
G1 X153.752 Y95.566 E27.76382
G1 X154.038 Y96.942 E27.82994
G1 X154.153 Y97.671 E27.86462
G1 X154.306 Y99.065 E27.93055
G1 X154.371 Y100.467 E27.99658
G1 X154.371 Y101.137 E28.02804
G1 X154.306 Y102.539 E28.09408
G1 X154.237 Y103.274 E28.12876
G1 X154.038 Y104.662 E28.19468
G1 X153.913 Y105.319 E28.22616
G1 X153.586 Y106.685 E28.29217
G1 X153.380 Y107.393 E28.32685
G1 X152.924 Y108.722 E28.39291
G1 X152.386 Y110.017 E28.45886
G1 X152.101 Y110.622 E28.49032
G1 X151.445 Y111.864 E28.55637
G1 X150.713 Y113.062 E28.62236
G1 X150.298 Y113.671 E28.65703
G1 X149.463 Y114.782 E28.72238
G1 X149.028 Y115.309 E28.75449
G1 X148.084 Y116.348 E28.82050
G1 X147.076 Y117.326 E28.88653
G1 X146.523 Y117.814 E28.92120
G1 X145.427 Y118.691 E28.98723
G1 X144.276 Y119.498 E29.05331
G1 X143.079 Y120.230 E29.11929
G1 X142.494 Y120.552 E29.15072
G1 X141.233 Y121.171 E29.21675
G1 X140.556 Y121.464 E29.25145
G1 X139.243 Y121.959 E29.31741
G1 X137.899 Y122.371 E29.38351
G1 X136.534 Y122.698 E29.44950
G1 X135.876 Y122.823 E29.48098
G1 X134.488 Y123.022 E29.54693
G1 X133.087 Y123.133 E29.61304
G1 X132.017 Y123.162 E29.66335
G1 X115.017 Y123.162 E30.46270
G1 X113.947 Y123.133 E30.51302
G1 X112.546 Y123.022 E30.57912
G1 X111.157 Y122.823 E30.64507
G1 X109.780 Y122.537 E30.71119
G1 X108.427 Y122.166 E30.77720
G1 X107.097 Y121.709 E30.84329
G1 X105.802 Y121.171 E30.90923
G1 X104.540 Y120.552 E30.97534
G1 X103.320 Y119.855 E31.04138
G1 X102.147 Y119.083 E31.10741
G1 X12.918 Y53.122 E36.32493
G1 X12.141 Y52.522 E36.37112
G1 X11.073 Y51.609 E36.43715
G1 X10.066 Y50.631 E36.50319
G1 X9.121 Y49.591 E36.56923
G1 X8.244 Y48.494 E36.63527
G1 X7.851 Y47.954 E36.66667
G1 X7.079 Y46.781 E36.73269
G1 X6.383 Y45.562 E36.79873
G1 X6.048 Y44.905 E36.83339
G1 X5.471 Y43.623 E36.89949
G1 X4.976 Y42.311 E36.96544
G1 X4.769 Y41.675 E36.99688
G1 X4.563 Y40.967 E37.03155
G1 X4.237 Y39.602 E37.09756
G1 X3.996 Y38.216 E37.16369
G1 X3.845 Y36.837 E37.22892
G1 X3.801 Y36.155 E37.26107
G1 X3.778 Y34.752 E37.32705
G1 X3.801 Y34.015 E37.36170
G1 X3.913 Y32.614 E37.42780
G1 X4.112 Y31.225 E37.49378
G1 X4.237 Y30.568 E37.52523
G1 X4.564 Y29.202 E37.59124
G1 X4.769 Y28.494 E37.62589
G1 X5.225 Y27.165 E37.69198
G1 X5.763 Y25.870 E37.75792
G1 X6.048 Y25.264 E37.78938
G1 X6.704 Y24.023 E37.85543
G1 X7.079 Y23.388 E37.89008
G1 X7.851 Y22.215 E37.95610
G1 X8.244 Y21.675 E37.98750
G1 X9.121 Y20.578 E38.05354
G1 X9.609 Y20.025 E38.08821
G1 X10.587 Y19.017 E38.15426
G1 X11.626 Y18.073 E38.22027
G1 X12.675 Y17.233 E38.28349
G1 X12.915 Y17.444 F1800.000
G1 X14.049 Y16.649 E38.34860 F1500.000
G1 X15.230 Y15.927 E38.41370
G1 X15.798 Y15.615 E38.44417
G1 X17.042 Y15.004 E38.50933
G1 X17.719 Y14.711 E38.54400
G1 X19.013 Y14.224 E38.60902
G1 X19.629 Y14.023 E38.63951
G1 X20.964 Y13.657 E38.70459
G1 X22.321 Y13.374 E38.76978
G1 X23.690 Y13.178 E38.83480
G1 X24.425 Y13.108 E38.86948
G1 X25.072 Y13.068 E38.89998
G1 X26.133 Y13.039 E38.94987
G1 X43.133 Y13.039 E39.74921
G1 X44.192 Y13.068 E39.79907
G1 X44.840 Y13.108 E39.82960
G1 X46.215 Y13.259 E39.89462
G1 X46.943 Y13.374 E39.92927
G1 X48.300 Y13.656 E39.99447
G1 X49.635 Y14.023 E40.05954
G1 X50.946 Y14.473 E40.12471
G1 X52.223 Y15.004 E40.18974
G1 X53.467 Y15.615 E40.25489
G1 X54.669 Y16.302 E40.32003
G1 X55.825 Y17.063 E40.38509
G1 X145.044 Y83.018 E45.60205
G1 X145.817 Y83.613 E45.64790
G1 X146.316 Y84.026 E45.67836
G1 X147.341 Y84.957 E45.74348
G1 X147.863 Y85.479 E45.77819
G1 X148.793 Y86.503 E45.84322
G1 X149.206 Y87.003 E45.87370
G1 X149.658 Y87.586 E45.90841
G1 X150.453 Y88.719 E45.97349
G1 X151.175 Y89.900 E46.03855
G1 X151.487 Y90.468 E46.06903
G1 X152.098 Y91.712 E46.13421
G1 X152.628 Y92.989 E46.19923
G1 X152.878 Y93.683 E46.23392
G1 X153.079 Y94.299 E46.26439
G1 X153.445 Y95.634 E46.32948
G1 X153.728 Y96.991 E46.39467
G1 X153.843 Y97.720 E46.42935
G1 X153.993 Y99.094 E46.49435
G1 X154.057 Y100.477 E46.55945
G1 X154.057 Y101.127 E46.58999
G1 X153.993 Y102.510 E46.65509
G1 X153.924 Y103.244 E46.68978
G1 X153.728 Y104.613 E46.75477
G1 X153.606 Y105.251 E46.78532
G1 X153.284 Y106.597 E46.85040
G1 X153.079 Y107.305 E46.88508
G1 X152.628 Y108.615 E46.95021
G1 X152.098 Y109.892 E47.01523
G1 X151.822 Y110.480 E47.04576
G1 X151.175 Y111.704 E47.11089
G1 X150.453 Y112.885 E47.17595
G1 X150.038 Y113.495 E47.21062
G1 X149.215 Y114.590 E47.27505
G1 X148.793 Y115.101 E47.30622
G1 X147.862 Y116.126 E47.37131
G1 X146.869 Y117.090 E47.43641
G1 X146.316 Y117.578 E47.47108
G1 X145.234 Y118.442 E47.53618
G1 X144.100 Y119.238 E47.60133
G1 X142.919 Y119.960 E47.66639
G1 X142.351 Y120.272 E47.69689
G1 X141.108 Y120.883 E47.76199
G1 X140.431 Y121.176 E47.79669
G1 X139.137 Y121.663 E47.86172
G1 X137.811 Y122.069 E47.92690
G1 X136.466 Y122.391 E47.99196
G1 X135.827 Y122.513 E48.02251
G1 X134.458 Y122.709 E48.08754
G1 X133.077 Y122.819 E48.15271
G1 X132.017 Y122.847 E48.20256
G1 X115.017 Y122.847 E49.00191
G1 X113.957 Y122.819 E49.05177
G1 X112.575 Y122.709 E49.11694
G1 X111.206 Y122.513 E49.18196
G1 X109.849 Y122.230 E49.24716
G1 X108.514 Y121.864 E49.31224
G1 X107.204 Y121.414 E49.37740
G1 X105.927 Y120.883 E49.44241
G1 X104.683 Y120.272 E49.50759
G1 X103.480 Y119.585 E49.57271
G1 X102.324 Y118.823 E49.63780
G1 X13.105 Y52.869 E54.85473
G1 X12.333 Y52.274 E54.90058
G1 X11.281 Y51.373 E54.96569
G1 X10.809 Y50.930 E54.99616
G1 X9.844 Y49.936 E55.06127
G1 X9.357 Y49.383 E55.09592
G1 X8.492 Y48.302 E55.16103
G1 X7.697 Y47.168 E55.22615
G1 X6.982 Y46.000 E55.29055
G1 X6.662 Y45.419 E55.32171
G1 X6.051 Y44.175 E55.38689
G1 X5.521 Y42.898 E55.45191
G1 X5.271 Y42.204 E55.48656
G1 X5.071 Y41.587 E55.51707
G1 X4.704 Y40.253 E55.58216
G1 X4.543 Y39.533 E55.61683
G1 X4.306 Y38.167 E55.68203
G1 X4.158 Y36.807 E55.74633
G1 X4.115 Y36.145 E55.77755
G1 X4.092 Y34.761 E55.84260
G1 X4.156 Y33.377 E55.90778
G1 X4.306 Y32.002 E55.97280
G1 X4.422 Y31.274 E56.00748
G1 X4.704 Y29.917 E56.07264
G1 X5.067 Y28.596 E56.13703
G1 X5.271 Y27.965 E56.16824
G1 X5.759 Y26.671 E56.23326
G1 X6.328 Y25.407 E56.29843
G1 X6.663 Y24.750 E56.33310
G1 X7.350 Y23.548 E56.39821
G1 X8.103 Y22.404 E56.46261
G1 X8.492 Y21.868 E56.49377
G1 X9.357 Y20.786 E56.55888
G1 X9.844 Y20.233 E56.59355
G1 X10.809 Y19.240 E56.65867
G1 X11.834 Y18.309 E56.72376
G1 X12.868 Y17.481 E56.78604
G1 E55.78604 F1200.00000
G92 E0
G1 X27.419 Y41.828 F1800.000
G1 E1.00000 F1200.00000
G1 X26.993 Y41.895 E1.02028 F1200.000
G1 X26.564 Y41.936 E1.04055
G1 X26.133 Y41.949 E1.06083
G1 X25.702 Y41.936 E1.08111
G1 X25.272 Y41.895 E1.10138
G1 X24.846 Y41.828 E1.12166
G1 X24.425 Y41.734 E1.14194
G1 X24.004 Y41.611 E1.16259
G1 X23.232 Y41.306 E1.20162
G1 X22.826 Y41.100 E1.22300
G1 X22.454 Y40.881 E1.24330
G1 X22.098 Y40.638 E1.26358
G1 X21.757 Y40.374 E1.28386
G1 X21.434 Y40.089 E1.30413
G1 X21.129 Y39.784 E1.32441
G1 X20.843 Y39.460 E1.34469
G1 X20.579 Y39.120 E1.36496
G1 X20.336 Y38.762 E1.38527
G1 X20.106 Y38.371 E1.40665
G1 X19.753 Y37.619 E1.44571
G1 X19.597 Y37.183 E1.46746
G1 X19.391 Y36.378 E1.50652
G1 X19.320 Y35.921 E1.52827
G1 X19.268 Y35.093 E1.56731
G1 X19.282 Y34.654 E1.58795
G1 X19.322 Y34.224 E1.60823
G1 X19.390 Y33.799 E1.62851
G1 X19.484 Y33.378 E1.64879
G1 X19.604 Y32.964 E1.66906
G1 X19.750 Y32.558 E1.68934
G1 X19.921 Y32.162 E1.70962
G1 X20.117 Y31.778 E1.72989
G1 X20.337 Y31.406 E1.75020
G1 X20.593 Y31.031 E1.77158
G1 X21.123 Y30.391 E1.81061
G1 X21.434 Y30.081 E1.83126
G1 X21.757 Y29.796 E1.85153
G1 X22.098 Y29.531 E1.87181
G1 X22.454 Y29.289 E1.89209
G1 X22.826 Y29.069 E1.91237
G1 X23.210 Y28.874 E1.93264
G1 X23.606 Y28.702 E1.95292
G1 X24.011 Y28.556 E1.97320
G1 X24.425 Y28.436 E1.99347
G1 X24.846 Y28.342 E2.01375
G1 X25.280 Y28.273 E2.03440
G1 X26.109 Y28.221 E2.07343
G1 X26.563 Y28.234 E2.09481
G1 X26.993 Y28.274 E2.11512
G1 X27.427 Y28.343 E2.13576
G1 X28.231 Y28.549 E2.17480
G1 X28.659 Y28.702 E2.19618
G1 X29.055 Y28.874 E2.21648
G1 X29.440 Y29.069 E2.23676
G1 X29.811 Y29.289 E2.25703
G1 X30.167 Y29.531 E2.27731
G1 X30.508 Y29.796 E2.29759
G1 X30.832 Y30.081 E2.31786
G1 X31.137 Y30.386 E2.33814
G1 X31.422 Y30.709 E2.35842
G1 X31.686 Y31.050 E2.37869
G1 X31.928 Y31.407 E2.39897
G1 X32.148 Y31.778 E2.41928
G1 X32.354 Y32.184 E2.44066
G1 X32.659 Y32.956 E2.47969
G1 X32.781 Y33.378 E2.50034
G1 X32.876 Y33.799 E2.52064
G1 X32.946 Y34.248 E2.54202
G1 X32.997 Y35.077 E2.58105
G1 X32.983 Y35.516 E2.60170
G1 X32.943 Y35.945 E2.62198
G1 X32.875 Y36.371 E2.64226
G1 X32.781 Y36.792 E2.66256
G1 X32.653 Y37.229 E2.68394
G1 X32.347 Y38.001 E2.72300
G1 X32.136 Y38.413 E2.74475
G1 X31.691 Y39.113 E2.78379
G1 X31.422 Y39.460 E2.80444
G1 X31.137 Y39.784 E2.82471
G1 X30.832 Y40.089 E2.84499
G1 X30.508 Y40.374 E2.86527
G1 X30.167 Y40.638 E2.88554
G1 X29.811 Y40.881 E2.90582
G1 X29.440 Y41.100 E2.92610
G1 X29.055 Y41.296 E2.94637
G1 X28.660 Y41.467 E2.96665
G1 X28.254 Y41.613 E2.98693
G1 X27.840 Y41.734 E3.00720
G1 X27.477 Y41.815 E3.02466
G1 X27.360 Y41.519 F1800.000
G1 X26.954 Y41.583 E3.04401 F900.000
G1 X26.544 Y41.622 E3.06336
G1 X26.133 Y41.635 E3.08270
G1 X25.721 Y41.622 E3.10205
G1 X25.312 Y41.583 E3.12140
G1 X24.905 Y41.519 E3.14075
G1 X24.504 Y41.429 E3.16010
G1 X24.106 Y41.313 E3.17959
G1 X23.361 Y41.019 E3.21725
G1 X22.977 Y40.825 E3.23746
G1 X22.623 Y40.615 E3.25682
G1 X22.283 Y40.384 E3.27617
G1 X21.957 Y40.132 E3.29552
G1 X21.649 Y39.860 E3.31486
G1 X21.358 Y39.569 E3.33421
G1 X21.086 Y39.260 E3.35356
G1 X20.833 Y38.935 E3.37291
G1 X20.602 Y38.594 E3.39227
G1 X20.384 Y38.224 E3.41248
G1 X20.043 Y37.499 E3.45015
G1 X19.898 Y37.091 E3.47051
G1 X19.699 Y36.315 E3.50818
G1 X19.632 Y35.887 E3.52853
G1 X19.582 Y35.088 E3.56619
G1 X19.595 Y34.673 E3.58568
G1 X19.634 Y34.264 E3.60503
G1 X19.698 Y33.857 E3.62438
G1 X19.788 Y33.456 E3.64373
G1 X19.903 Y33.061 E3.66308
G1 X20.042 Y32.674 E3.68243
G1 X20.206 Y32.296 E3.70177
G1 X20.393 Y31.929 E3.72112
G1 X20.602 Y31.575 E3.74048
G1 X20.845 Y31.220 E3.76070
G1 X21.356 Y30.603 E3.79835
G1 X21.649 Y30.310 E3.81784
G1 X21.957 Y30.038 E3.83719
G1 X22.283 Y29.786 E3.85654
G1 X22.623 Y29.554 E3.87589
G1 X22.977 Y29.345 E3.89524
G1 X23.344 Y29.158 E3.91459
G1 X23.721 Y28.995 E3.93393
G1 X24.108 Y28.855 E3.95328
G1 X24.504 Y28.740 E3.97263
G1 X24.905 Y28.651 E3.99198
G1 X25.315 Y28.586 E4.01147
G1 X26.114 Y28.535 E4.04913
G1 X26.544 Y28.548 E4.06934
G1 X26.954 Y28.586 E4.08870
G1 X27.363 Y28.651 E4.10820
G1 X28.139 Y28.850 E4.14585
G1 X28.544 Y28.995 E4.16607
G1 X28.921 Y29.158 E4.18542
G1 X29.288 Y29.345 E4.20477
G1 X29.642 Y29.554 E4.22412
G1 X29.983 Y29.786 E4.24347
G1 X30.308 Y30.038 E4.26282
G1 X30.616 Y30.310 E4.28217
G1 X30.907 Y30.601 E4.30151
G1 X31.180 Y30.910 E4.32086
G1 X31.432 Y31.235 E4.34021
G1 X31.663 Y31.575 E4.35956
